%
(boot)
(T7  D=6.35 CR=0 - ZMIN=-18.5 - flat end mill)
G90 G94
G17
G21
G28 G91 Z0
G90

(mag slots)
M9
T7 M6
S12568 M3
G54
M9
G0 X-33.85 Y-105.869
Z15
Z5
G1 Z3.135 F150
S25000
G3 X-33.822 Y-105.88 Z2.943 I0.657 J1.702 F200
X-33.741 Y-105.908 Z2.769 I0.63 J1.713
X-33.61 Y-105.943 Z2.629 I0.548 J1.741
X-33.443 Y-105.975 Z2.536 I0.418 J1.776
X-33.252 Y-105.991 Z2.5 I0.25 J1.808
X-31.616 Y-103.249 Z2.364 I0.06 J1.824
G1 X-41.676 Y-85.964 Z1.666
G3 X-44.831 Y-87.8 Z1.466 I-1.577 J-0.918
G1 X-34.77 Y-105.085 Z0.767
G3 X-32.275 Y-105.744 Z0.667 I1.577 J0.918
X-31.616 Y-103.249 Z0.567 I-0.918 J1.577
G1 X-41.676 Y-85.964 Z-0.131
G3 X-44.831 Y-87.8 Z-0.332 I-1.577 J-0.918
G1 X-34.77 Y-105.085 Z-1.03
G3 X-32.275 Y-105.744 Z-1.13 I1.577 J0.918
X-31.616 Y-103.249 Z-1.23 I-0.918 J1.577
G1 X-41.676 Y-85.964 Z-1.929
G3 X-44.831 Y-87.8 Z-2.129 I-1.577 J-0.918
G1 X-44.528 Y-88.321 Z-2.15
S12568
X-34.77 Y-105.085
G3 X-32.275 Y-105.744 I1.577 J0.918
X-31.616 Y-103.249 I-0.918 J1.577
G1 X-41.676 Y-85.964
G3 X-44.831 Y-87.8 I-1.577 J-0.918
G1 X-44.528 Y-88.321
G3 X-44.404 Y-88.473 Z-2.119 I0.549 J0.319
X-44.258 Y-88.572 Z-2.029 I0.426 J0.471
X-44.126 Y-88.619 Z-1.888 I0.28 J0.57
X-44.037 Y-88.634 Z-1.711 I0.148 J0.618
X-44.006 Y-88.636 Z-1.515 I0.059 J0.632
G0 Z15
X-28.11 Y-180.501
Z5
G1 Z3.135 F150
S25000
G19 G3 Y-179.888 Z2.5 J0.635 F200
G1 Y-176 Z2.364
G17 G3 X-31.76 Z2.164 I-1.825
G1 Y-196 Z1.466
G3 X-31.661 Y-196.592 Z1.445 I1.825
X-28.11 Y-196 Z1.265 I1.726 J0.592
G1 Y-176 Z0.567
G3 X-31.76 Z0.367 I-1.825
G1 Y-196 Z-0.332
G3 X-31.661 Y-196.592 Z-0.353 I1.825
X-28.11 Y-196 Z-0.532 I1.726 J0.592
G1 Y-176 Z-1.23
G3 X-31.76 Z-1.431 I-1.825
G1 Y-196 Z-2.129
G3 X-31.661 Y-196.592 Z-2.15 I1.825
S12568
X-28.11 Y-196 I1.726 J0.592
G1 Y-176
G3 X-31.76 I-1.825
G1 Y-196
G3 X-31.661 Y-196.592 I1.825
X-31.57 Y-196.765 Z-2.119 I0.601 J0.206
X-31.446 Y-196.891 Z-2.029 I0.509 J0.379
X-31.326 Y-196.963 Z-1.888 I0.386 J0.505
X-31.242 Y-196.995 Z-1.711 I0.265 J0.577
X-31.212 Y-197.003 Z-1.515 I0.181 J0.609
G0 Z15
X-181.29 Y-194.366
Z5
G1 Z3.135 F150
S25000
G19 G2 Y-194.978 Z2.5 J-0.635 F200
G1 Y-196 Z2.464
G17 G3 X-177.64 Z2.264 I1.825
G1 Y-176 Z1.566
G3 X-181.29 Z1.365 I-1.825
G1 Y-196 Z0.667
G3 X-177.64 Z0.467 I1.825
G1 Y-176 Z-0.232
G3 X-181.29 Z-0.432 I-1.825
G1 Y-196 Z-1.13
G3 X-177.64 Z-1.33 I1.825
G1 Y-176 Z-2.029
G3 X-180.057 Y-174.274 Z-2.15 I-1.825
S12568
X-181.29 Y-176 I0.592 J-1.726
G1 Y-196
G3 X-177.64 I1.825
G1 Y-176
G3 X-180.057 Y-174.274 I-1.825
X-180.23 Y-174.365 Z-2.119 I0.206 J-0.601
X-180.356 Y-174.489 Z-2.029 I0.379 J-0.509
X-180.428 Y-174.609 Z-1.888 I0.505 J-0.386
X-180.46 Y-174.693 Z-1.711 I0.577 J-0.265
X-180.468 Y-174.723 Z-1.515 I0.609 J-0.181
G0 Z15
X-301.119 Y-99.357
Z5
G1 Z3.135 F150
S25000
X-301.122 Y-99.363 Z3.037 F200
X-301.133 Y-99.382 Z2.943
X-301.152 Y-99.414 Z2.852
X-301.177 Y-99.457 Z2.769
X-301.208 Y-99.511 Z2.694
X-301.245 Y-99.574 Z2.629
X-301.286 Y-99.644 Z2.576
X-301.331 Y-99.721 Z2.536
X-301.378 Y-99.803 Z2.511
X-301.427 Y-99.886 Z2.5
X-303.384 Y-103.249 Z2.364
G3 X-302.725 Y-105.744 Z2.264 I1.577 J-0.918
X-300.23 Y-105.085 Z2.164 I0.918 J1.577
G1 X-290.169 Y-87.8 Z1.466
G3 X-289.957 Y-87.238 Z1.444 I-1.577 J0.918
X-293.324 Y-85.963 Z1.265 I-1.79 J0.357
G1 X-303.384 Y-103.249 Z0.567
G3 X-302.725 Y-105.744 Z0.467 I1.577 J-0.918
X-300.23 Y-105.085 Z0.367 I0.918 J1.577
G1 X-290.169 Y-87.8 Z-0.332
G3 X-289.957 Y-87.238 Z-0.353 I-1.577 J0.918
X-293.324 Y-85.963 Z-0.532 I-1.79 J0.357
G1 X-303.384 Y-103.249 Z-1.23
G3 X-302.725 Y-105.744 Z-1.33 I1.577 J-0.918
X-300.23 Y-105.085 Z-1.431 I0.918 J1.577
G1 X-290.169 Y-87.8 Z-2.129
G3 X-289.957 Y-87.238 Z-2.15 I-1.577 J0.918
S12568
X-293.324 Y-85.963 I-1.79 J0.357
G1 X-303.384 Y-103.249
G3 X-302.725 Y-105.744 I1.577 J-0.918
X-300.23 Y-105.085 I0.918 J1.577
G1 X-290.169 Y-87.8
G3 X-289.957 Y-87.238 I-1.577 J0.918
X-289.948 Y-87.043 Z-2.119 I-0.623 J0.124
X-289.992 Y-86.872 Z-2.029 I-0.631 J-0.071
X-290.06 Y-86.749 Z-1.888 I-0.587 J-0.242
X-290.117 Y-86.679 Z-1.711 I-0.52 J-0.365
X-290.138 Y-86.657 Z-1.515 I-0.463 J-0.435
G0 Z15
X-183.377 Y-105.871
Z5
G1 Z3.135 F150
S25000
G3 X-183.349 Y-105.881 Z2.943 I0.654 J1.704 F200
X-183.267 Y-105.909 Z2.769 I0.627 J1.714
X-183.137 Y-105.944 Z2.629 I0.545 J1.742
X-182.969 Y-105.975 Z2.536 I0.415 J1.777
X-182.779 Y-105.991 Z2.5 I0.247 J1.808
X-181.145 Y-103.249 Z2.364 I0.056 J1.824
G1 X-191.206 Y-85.964 Z1.666
G3 X-193.702 Y-85.304 Z1.566 I-1.577 J-0.918
X-194.361 Y-87.8 Z1.466 I0.918 J-1.577
G1 X-184.3 Y-105.085 Z0.767
G3 X-181.805 Y-105.744 Z0.667 I1.577 J0.918
X-181.145 Y-103.249 Z0.567 I-0.918 J1.577
G1 X-191.206 Y-85.964 Z-0.131
G3 X-193.702 Y-85.304 Z-0.232 I-1.577 J-0.918
X-194.361 Y-87.8 Z-0.332 I0.918 J-1.577
G1 X-184.3 Y-105.085 Z-1.03
G3 X-181.805 Y-105.744 Z-1.13 I1.577 J0.918
X-181.145 Y-103.249 Z-1.23 I-0.918 J1.577
G1 X-191.206 Y-85.964 Z-1.929
G3 X-193.702 Y-85.304 Z-2.029 I-1.577 J-0.918
X-194.361 Y-87.8 Z-2.129 I0.918 J-1.577
G1 X-194.057 Y-88.321 Z-2.15
S12568
X-184.3 Y-105.085
G3 X-181.805 Y-105.744 I1.577 J0.918
X-181.145 Y-103.249 I-0.918 J1.577
G1 X-191.206 Y-85.964
G3 X-193.702 Y-85.304 I-1.577 J-0.918
X-194.361 Y-87.8 I0.918 J-1.577
G1 X-194.057 Y-88.321
G3 X-193.934 Y-88.473 Z-2.119 I0.549 J0.319
X-193.788 Y-88.572 Z-2.029 I0.426 J0.471
X-193.656 Y-88.619 Z-1.888 I0.28 J0.57
X-193.567 Y-88.634 Z-1.711 I0.148 J0.618
X-193.536 Y-88.636 Z-1.515 I0.059 J0.632
G0 Z5
X-151.592 Y-99.361
G1 Z3.135 F150
S25000
X-151.596 Y-99.367 Z3.037 F200
X-151.607 Y-99.387 Z2.943
X-151.625 Y-99.418 Z2.852
X-151.65 Y-99.461 Z2.769
X-151.682 Y-99.515 Z2.694
X-151.718 Y-99.578 Z2.629
X-151.759 Y-99.649 Z2.576
X-151.804 Y-99.726 Z2.536
X-151.851 Y-99.807 Z2.511
X-151.9 Y-99.891 Z2.5
X-153.855 Y-103.249 Z2.364
G3 X-150.7 Y-105.085 Z2.164 I1.577 J-0.918
G1 X-140.639 Y-87.8 Z1.466
G3 X-143.794 Y-85.964 Z1.265 I-1.577 J0.918
G1 X-153.855 Y-103.249 Z0.567
G3 X-150.7 Y-105.085 Z0.367 I1.577 J-0.918
G1 X-140.639 Y-87.8 Z-0.332
G3 X-143.794 Y-85.964 Z-0.532 I-1.577 J0.918
G1 X-153.855 Y-103.249 Z-1.23
G3 X-150.7 Y-105.085 Z-1.431 I1.577 J-0.918
G1 X-140.639 Y-87.8 Z-2.129
G3 X-140.426 Y-87.238 Z-2.15 I-1.577 J0.918
S12568
X-143.794 Y-85.964 I-1.79 J0.357
G1 X-153.855 Y-103.249
G3 X-150.7 Y-105.085 I1.577 J-0.918
G1 X-140.639 Y-87.8
G3 X-140.426 Y-87.238 I-1.577 J0.918
X-140.418 Y-87.043 Z-2.119 I-0.623 J0.124
X-140.462 Y-86.872 Z-2.029 I-0.631 J-0.071
X-140.53 Y-86.749 Z-1.888 I-0.587 J-0.242
X-140.587 Y-86.679 Z-1.711 I-0.52 J-0.365
X-140.608 Y-86.657 Z-1.515 I-0.463 J-0.435
G0 Z5
X-157.36 Y-191.499
G1 Z3.135 F150
S25000
G19 G2 Y-192.112 Z2.5 J-0.635 F200
G1 Y-196 Z2.364
G17 G3 X-153.71 Z2.164 I1.825
G1 Y-176 Z1.466
G3 X-153.809 Y-175.408 Z1.445 I-1.825
X-155.535 Y-174.175 Z1.365 I-1.726 J-0.592
X-157.36 Y-176 Z1.265 J-1.825
G1 Y-196 Z0.567
G3 X-153.71 Z0.367 I1.825
G1 Y-176 Z-0.332
G3 X-153.809 Y-175.408 Z-0.353 I-1.825
X-155.535 Y-174.175 Z-0.432 I-1.726 J-0.592
X-157.36 Y-176 Z-0.532 J-1.825
G1 Y-196 Z-1.23
G3 X-153.71 Z-1.431 I1.825
G1 Y-176 Z-2.129
G3 X-153.809 Y-175.408 Z-2.15 I-1.825
S12568
X-157.36 Y-176 I-1.726 J-0.592
G1 Y-196
G3 X-153.71 I1.825
G1 Y-176
G3 X-153.809 Y-175.408 I-1.825
X-153.9 Y-175.235 Z-2.119 I-0.601 J-0.206
X-154.024 Y-175.109 Z-2.029 I-0.509 J-0.379
X-154.144 Y-175.037 Z-1.888 I-0.386 J-0.505
X-154.228 Y-175.005 Z-1.711 I-0.265 J-0.577
X-154.258 Y-174.997 Z-1.515 I-0.181 J-0.609
G0 Z5
X-306.49 Y-197.141
G1 Z3.135 F150
S25000
G3 X-306.471 Y-197.164 Z2.943 I1.425 J1.141 F200
X-306.414 Y-197.229 Z2.769 I1.406 J1.164
X-306.32 Y-197.325 Z2.629 I1.349 J1.229
X-306.19 Y-197.437 Z2.536 I1.255 J1.325
X-306.034 Y-197.546 Z2.5 I1.125 J1.437
X-305.065 Y-197.825 Z2.464 I0.969 J1.546
X-303.24 Y-196 Z2.364 J1.825
G1 Y-176 Z1.666
G3 X-305.065 Y-174.175 Z1.566 I-1.825
X-306.89 Y-176 Z1.466 J-1.825
G1 Y-196 Z0.767
G3 X-305.065 Y-197.825 Z0.667 I1.825
X-303.24 Y-196 Z0.567 J1.825
G1 Y-176 Z-0.131
G3 X-305.065 Y-174.175 Z-0.232 I-1.825
X-306.89 Y-176 Z-0.332 J-1.825
G1 Y-196 Z-1.03
G3 X-305.065 Y-197.825 Z-1.13 I1.825
X-303.24 Y-196 Z-1.23 J1.825
G1 Y-176 Z-1.929
G3 X-305.065 Y-174.175 Z-2.029 I-1.825
X-306.89 Y-176 Z-2.129 J-1.825
G1 Y-176.603 Z-2.15
S12568
Y-196
G3 X-303.24 I1.825
G1 Y-176
G3 X-305.065 Y-174.175 I-1.825
X-306.89 Y-176 J-1.825
G1 Y-176.603
G3 X-306.86 Y-176.796 Z-2.119 I0.635
X-306.783 Y-176.955 Z-2.029 I0.605 J0.193
X-306.693 Y-177.063 Z-1.888 I0.528 J0.352
X-306.624 Y-177.12 Z-1.711 I0.438 J0.459
X-306.598 Y-177.138 Z-1.515 I0.369 J0.517
G0 Z15

(top vents)
M9
X-133.497 Y-96.06
Z10
Z5
Z-5.73
G1 Z-6.365 F150
X-133.495 Y-96.053 Z-6.464
X-133.491 Y-96.03 Z-6.561
X-133.484 Y-95.992 Z-6.653
X-133.474 Y-95.941 Z-6.738
X-133.462 Y-95.878 Z-6.814
X-133.448 Y-95.803 Z-6.879
X-133.432 Y-95.72 Z-6.931
X-133.415 Y-95.629 Z-6.969
X-133.397 Y-95.534 Z-6.992
X-133.378 Y-95.437 Z-7
G2 X-132.36 Y-92.096 I15.926 J-3.03
G1 X-132.292 Y-91.951 F200
X-131.919 Y-91.123
X-131.737 Y-90.709
X-131.647 Y-90.502
X-131.478 Y-89.88
X-131.432 Y-89.673
X-131.207 Y-88.637
X-131.169 Y-88.43
X-131.11 Y-88.016
X-131.092 Y-87.809
X-131.09 Y-87.602
X-131.058 Y-87.057
X-130.978 Y-86.487
X-130.859 Y-85.955
X-130.694 Y-85.422
X-130.574 Y-85.122
X-130.421 Y-84.813
X-130.267 Y-84.557
X-130.136 Y-84.374
X-129.961 Y-84.167
X-129.817 Y-84.022
X-129.683 Y-83.908
X-129.511 Y-83.782
X-129.355 Y-83.688
X-129.221 Y-83.62
X-129.063 Y-83.557
X-128.892 Y-83.505
X-128.746 Y-83.472
X-128.597 Y-83.457
X-128.425 Y-83.453
X-128.266 Y-83.463
X-128.073 Y-83.49
X-127.843 Y-83.541
X-127.571 Y-83.626
X-127.25 Y-83.755
X-126.871 Y-83.943
X-126.419 Y-84.215
X-125.867 Y-84.611
X-125.171 Y-85.201
X-124.504 Y-85.822
X-123.858 Y-86.465
X-123.226 Y-87.123
X-122.604 Y-87.79
X-121.974 Y-88.449
X-121.334 Y-89.099
X-120.688 Y-89.741
X-120.036 Y-90.379
X-119.372 Y-91.004
X-118.69 Y-91.609
X-117.996 Y-92.201
X-117.294 Y-92.782
X-116.582 Y-93.352
X-115.851 Y-93.897
X-115.106 Y-94.423
X-114.353 Y-94.937
X-113.593 Y-95.441
X-112.816 Y-95.918
X-112.026 Y-96.373
X-111.227 Y-96.812
X-110.422 Y-97.24
X-109.605 Y-97.646
X-108.777 Y-98.027
X-107.94 Y-98.389
X-107.097 Y-98.737
X-106.248 Y-99.069
X-105.388 Y-99.372
X-104.52 Y-99.653
X-103.648 Y-99.919
X-102.772 Y-100.173
X-101.888 Y-100.396
X-100.998 Y-100.594
X-100.104 Y-100.774
X-99.208 Y-100.942
X-98.308 Y-101.085
X-97.403 Y-101.2
X-96.496 Y-101.295
X-95.588 Y-101.375
X-94.678 Y-101.437
X-93.767 Y-101.468
X-92.855 Y-101.477
X-91.943 Y-101.47
X-91.032 Y-101.451
X-90.122 Y-101.398
X-89.213 Y-101.32
X-88.306 Y-101.225
X-87.401 Y-101.118
X-86.499 Y-100.983
X-85.601 Y-100.822
X-84.708 Y-100.641
X-83.817 Y-100.447
X-82.931 Y-100.233
X-82.052 Y-99.989
X-81.179 Y-99.724
X-80.311 Y-99.445
X-79.447 Y-99.153
X-78.595 Y-98.83
X-77.751 Y-98.484
X-76.914 Y-98.122
X-76.082 Y-97.749
X-75.262 Y-97.35
X-74.454 Y-96.928
X-73.656 Y-96.488
X-72.864 Y-96.036
X-72.083 Y-95.566
X-71.317 Y-95.07
X-70.564 Y-94.556
X-69.819 Y-94.03
X-69.083 Y-93.493
X-68.366 Y-92.929
X-67.665 Y-92.346
X-66.974 Y-91.751
X-66.291 Y-91.146
X-65.629 Y-90.52
X-64.985 Y-89.874
X-64.354 Y-89.216
X-63.734 Y-88.548
X-63.13 Y-87.865
X-62.548 Y-87.163
X-61.983 Y-86.447
X-61.429 Y-85.722
X-60.88 Y-84.995
X-60.595 Y-84.639
X-60.214 Y-84.221
X-59.971 Y-83.995
X-59.654 Y-83.744
X-59.47 Y-83.621
X-59.243 Y-83.494
X-58.99 Y-83.378
X-58.831 Y-83.32
X-58.634 Y-83.266
X-58.403 Y-83.222
X-58.253 Y-83.206
X-58.089 Y-83.204
X-57.888 Y-83.217
X-57.721 Y-83.241
X-57.531 Y-83.285
X-57.306 Y-83.356
X-57.041 Y-83.464
X-56.732 Y-83.62
X-56.37 Y-83.841
X-55.942 Y-84.151
X-55.425 Y-84.594
X-54.782 Y-85.241
X-54.736 Y-85.295
X-54.585 Y-85.51
X-54.474 Y-85.747
X-54.406 Y-86.001
X-54.384 Y-86.262
X-54.386 Y-86.566
X-54.384 Y-87.187
X-54.378 Y-87.809
X-54.359 Y-88.016
X-54.301 Y-88.43
X-54.263 Y-88.637
X-54.039 Y-89.673
X-53.992 Y-89.88
X-53.824 Y-90.502
X-53.551 Y-91.123
X-53.513 Y-91.208
G2 X-53.466 Y-91.451 I-0.588 J-0.24
G1 Y-91.551 Z-6.992
X-53.467 Y-91.648 Z-6.969
Y-91.74 Z-6.931
X-53.468 Y-91.825 Z-6.879
Y-91.9 Z-6.814
X-53.469 Y-91.965 Z-6.738
Y-92.017 Z-6.653
Y-92.055 Z-6.561
Y-92.078 Z-6.464
Y-92.086 Z-6.365
G0 Z5
X-130.304 Y-87.909
Z-5.73
G1 Z-6.365 F150
X-130.312 Y-87.908 Z-6.464
X-130.335 Y-87.903 Z-6.561
X-130.372 Y-87.896 Z-6.653
X-130.423 Y-87.887 Z-6.738
X-130.487 Y-87.875 Z-6.814
X-130.561 Y-87.861 Z-6.879
X-130.645 Y-87.845 Z-6.931
X-130.735 Y-87.828 Z-6.969
X-130.83 Y-87.81 Z-6.992
X-130.928 Y-87.791 Z-7
G2 X-131.09 Y-87.602 I0.037 J0.195
G1 X-131.086 Y-87.187 F200
X-131.084 Y-86.566
X-131.088 Y-85.945
X-131.114 Y-85.737
X-131.174 Y-85.323
X-131.214 Y-85.116
X-131.238 Y-85.002
X-131.262 Y-84.854
X-131.271 Y-84.69
X-131.266 Y-84.515
X-131.247 Y-84.332
X-131.212 Y-84.144
X-131.159 Y-83.952
X-131.09 Y-83.759
X-131.002 Y-83.566
X-130.896 Y-83.376
X-130.773 Y-83.19
X-130.636 Y-83.017
X-130.483 Y-82.852
X-130.313 Y-82.696
X-130.127 Y-82.551
X-129.925 Y-82.418
X-129.707 Y-82.299
X-129.472 Y-82.194
X-129.212 Y-82.101
X-128.928 Y-82.026
X-128.63 Y-81.972
X-128.297 Y-81.938
X-127.938 Y-81.931
X-127.558 Y-81.955
X-127.123 Y-82.016
X-126.683 Y-82.116
X-126.159 Y-82.279
X-125.591 Y-82.507
X-124.92 Y-82.842
X-124.139 Y-83.313
X-123.398 Y-83.844
X-122.689 Y-84.417
X-122.003 Y-85.018
X-121.332 Y-85.636
X-120.669 Y-86.261
X-119.349 Y-87.519
X-118.683 Y-88.142
X-118.009 Y-88.756
X-117.326 Y-89.361
X-116.634 Y-89.955
X-115.93 Y-90.534
X-115.212 Y-91.096
X-114.484 Y-91.644
X-113.744 Y-92.177
X-112.99 Y-92.691
X-112.224 Y-93.186
X-111.447 Y-93.663
X-110.659 Y-94.122
X-109.86 Y-94.56
X-109.05 Y-94.978
X-108.229 Y-95.376
X-107.4 Y-95.756
X-106.561 Y-96.113
X-105.713 Y-96.448
X-104.857 Y-96.762
X-103.995 Y-97.057
X-103.124 Y-97.329
X-102.247 Y-97.577
X-101.364 Y-97.804
X-100.475 Y-98.01
X-99.582 Y-98.193
X-98.684 Y-98.353
X-97.783 Y-98.49
X-96.879 Y-98.607
X-95.972 Y-98.7
X-95.062 Y-98.769
X-94.152 Y-98.816
X-93.24 Y-98.842
X-92.329 Y-98.843
X-91.417 Y-98.82
X-90.506 Y-98.775
X-89.597 Y-98.709
X-88.69 Y-98.618
X-87.785 Y-98.504
X-86.883 Y-98.368
X-85.985 Y-98.211
X-85.091 Y-98.031
X-84.203 Y-97.827
X-83.319 Y-97.602
X-82.441 Y-97.357
X-81.57 Y-97.088
X-80.706 Y-96.796
X-79.85 Y-96.483
X-79.001 Y-96.15
X-78.161 Y-95.794
X-77.331 Y-95.417
X-76.51 Y-95.02
X-75.699 Y-94.603
X-74.899 Y-94.166
X-74.111 Y-93.708
X-73.334 Y-93.23
X-72.568 Y-92.735
X-71.815 Y-92.221
X-71.077 Y-91.686
X-70.352 Y-91.133
X-69.64 Y-90.563
X-68.943 Y-89.975
X-68.262 Y-89.369
X-67.596 Y-88.746
X-66.945 Y-88.107
X-66.311 Y-87.452
X-65.694 Y-86.781
X-65.094 Y-86.094
X-64.508 Y-85.396
X-63.928 Y-84.692
X-63.337 Y-83.998
X-62.714 Y-83.332
X-62.157 Y-82.82
X-61.663 Y-82.433
X-61.198 Y-82.126
X-60.761 Y-81.886
X-60.34 Y-81.696
X-59.929 Y-81.55
X-59.528 Y-81.442
X-59.126 Y-81.368
X-58.716 Y-81.326
X-58.293 Y-81.317
X-57.859 Y-81.343
X-57.414 Y-81.405
X-56.937 Y-81.512
X-56.422 Y-81.671
X-55.908 Y-81.877
X-55.32 Y-82.169
X-54.838 Y-82.458
X-54.634 Y-82.604
X-54.42 Y-82.792
X-54.245 Y-83.017
X-54.117 Y-83.271
X-54.039 Y-83.545
X-54.016 Y-83.829
X-54.047 Y-84.112
X-54.204 Y-84.867
G2 X-54.309 Y-85.091 I-0.617 J0.151
G1 X-54.368 Y-85.171 Z-6.992
X-54.425 Y-85.25 Z-6.969
X-54.48 Y-85.324 Z-6.931
X-54.53 Y-85.392 Z-6.879
X-54.575 Y-85.453 Z-6.814
X-54.613 Y-85.505 Z-6.738
X-54.644 Y-85.547 Z-6.653
X-54.667 Y-85.578 Z-6.561
X-54.68 Y-85.597 Z-6.464
X-54.685 Y-85.603 Z-6.365
G0 Z5
X-130.405 Y-85.135
Z-5.73
G1 Z-6.365 F150
X-130.413 Z-6.464
X-130.436 Y-85.136 Z-6.561
X-130.474 Y-85.137 Z-6.653
X-130.526 Y-85.138 Z-6.738
X-130.591 Y-85.14 Z-6.814
X-130.667 Y-85.142 Z-6.879
X-130.752 Y-85.145 Z-6.931
X-130.844 Y-85.147 Z-6.969
X-130.941 Y-85.15 Z-6.992
X-131.04 Y-85.153 Z-7
G2 X-131.238 Y-85.002 I-0.006 J0.198
G1 X-131.431 Y-84.08 F200
X-131.479 Y-83.873
X-131.535 Y-83.666
X-131.571 Y-83.502
X-131.602 Y-83.356
X-131.619 Y-83.206
X-131.623 Y-83.057
X-131.615 Y-82.907
X-131.596 Y-82.758
X-131.567 Y-82.611
X-131.527 Y-82.466
X-131.479 Y-82.324
X-131.423 Y-82.185
X-131.358 Y-82.05
X-131.287 Y-81.918
X-131.208 Y-81.79
X-131.123 Y-81.666
X-131.033 Y-81.547
X-130.937 Y-81.432
X-130.835 Y-81.321
X-130.729 Y-81.215
X-130.619 Y-81.113
X-130.504 Y-81.017
X-130.386 Y-80.924
X-130.264 Y-80.837
X-130.139 Y-80.754
X-130.011 Y-80.676
X-129.88 Y-80.602
X-129.747 Y-80.533
X-129.612 Y-80.469
X-129.474 Y-80.409
X-129.335 Y-80.354
X-129.194 Y-80.303
X-129.051 Y-80.257
X-128.907 Y-80.215
X-128.762 Y-80.176
X-128.616 Y-80.143
X-128.469 Y-80.113
X-128.321 Y-80.088
X-128.172 Y-80.066
X-128.023 Y-80.048
X-127.874 Y-80.034
X-127.724 Y-80.024
X-127.575 Y-80.018
X-127.425 Y-80.015
X-127.275 Y-80.016
X-127.125 Y-80.02
X-126.975 Y-80.027
X-126.825 Y-80.038
X-126.676 Y-80.052
X-126.527 Y-80.069
X-126.378 Y-80.089
X-126.23 Y-80.112
X-126.082 Y-80.138
X-125.935 Y-80.167
X-125.788 Y-80.198
X-125.642 Y-80.232
X-125.497 Y-80.269
X-125.352 Y-80.307
X-125.208 Y-80.349
X-125.064 Y-80.393
X-124.922 Y-80.439
X-124.78 Y-80.488
X-124.638 Y-80.539
X-124.498 Y-80.591
X-124.358 Y-80.646
X-124.22 Y-80.703
X-124.082 Y-80.762
X-123.945 Y-80.823
X-123.808 Y-80.885
X-123.673 Y-80.95
X-123.538 Y-81.016
X-123.404 Y-81.083
X-123.271 Y-81.153
X-123.139 Y-81.224
X-123.008 Y-81.296
X-122.877 Y-81.37
X-122.747 Y-81.445
X-122.618 Y-81.522
X-122.49 Y-81.6
X-122.363 Y-81.679
X-122.236 Y-81.759
X-122.11 Y-81.84
X-121.985 Y-81.923
X-121.86 Y-82.006
X-121.736 Y-82.091
X-121.613 Y-82.176
X-121.484 Y-82.267
X-121.348 Y-82.364
X-121.208 Y-82.466
X-121.064 Y-82.571
X-120.913 Y-82.685
X-120.752 Y-82.807
X-120.58 Y-82.939
X-120.396 Y-83.084
X-120.196 Y-83.243
X-119.979 Y-83.418
X-119.727 Y-83.625
X-119.424 Y-83.876
X-119.042 Y-84.199
X-118.413 Y-84.738
X-117.725 Y-85.336
X-117.038 Y-85.935
X-116.694 Y-86.234
X-116.436 Y-86.455
X-115.891 Y-86.919
X-113.763 Y-88.789
X-113.698 Y-88.844
X-113.442 Y-89.052
X-113.348 Y-89.12
X-110.779 Y-90.916
X-110.655 Y-90.998
X-110.034 Y-91.37
X-107.341 Y-92.837
X-107.134 Y-92.934
X-106.72 Y-93.111
X-106.512 Y-93.197
X-103.987 Y-94.23
X-103.819 Y-94.29
X-103.357 Y-94.437
X-103.198 Y-94.486
X-100.712 Y-95.193
X-100.505 Y-95.251
X-99.884 Y-95.397
X-99.676 Y-95.433
X-97.191 Y-95.851
X-96.569 Y-95.95
X-96.362 Y-95.974
X-95.741 Y-96.013
X-93.255 Y-96.151
X-93.048 Y-96.162
X-92.426
X-92.012 Y-96.14
X-89.733 Y-96.013
X-89.112 Y-95.974
X-88.905 Y-95.951
X-88.283 Y-95.851
X-85.797 Y-95.434
X-85.59 Y-95.398
X-84.969 Y-95.252
X-84.285 Y-95.059
X-82.276 Y-94.487
X-82.069 Y-94.423
X-81.654 Y-94.291
X-81.484 Y-94.23
X-78.95 Y-93.194
X-78.754 Y-93.113
X-78.34 Y-92.935
X-78.133 Y-92.839
X-75.647 Y-91.485
X-75.44 Y-91.372
X-74.818 Y-91.001
X-74.691 Y-90.916
X-72.125 Y-89.123
X-72.028 Y-89.052
X-71.772 Y-88.844
X-71.711 Y-88.792
X-69.413 Y-86.773
X-69.225 Y-86.591
X-68.794 Y-86.152
X-68.604 Y-85.945
X-68.603
X-67.956 Y-85.302
X-67.336 Y-84.633
X-66.725 Y-83.957
X-66.11 Y-83.284
X-65.481 Y-82.623
X-64.829 Y-81.986
X-64.144 Y-81.384
X-63.433 Y-80.839
X-62.742 Y-80.393
X-62.089 Y-80.043
X-61.453 Y-79.765
X-60.818 Y-79.546
X-60.181 Y-79.382
X-59.541 Y-79.271
X-58.892 Y-79.212
X-58.228 Y-79.205
X-57.554 Y-79.252
X-56.854 Y-79.358
X-56.159 Y-79.521
X-55.545 Y-79.718
X-55.023 Y-79.933
X-54.595 Y-80.152
X-54.24 Y-80.37
X-53.91 Y-80.612
X-53.83 Y-80.681
X-53.615 Y-80.91
X-53.454 Y-81.179
X-53.353 Y-81.476
X-53.317 Y-81.788
X-53.347 Y-82.101
X-53.443 Y-82.4
X-53.572 Y-82.693
G2 X-54.014 Y-83.04 I-0.573 J0.275
G1 X-66.857 Y-85.735
G2 X-67.591 Y-84.919 I-0.13 J0.621
X-67.471 Y-84.702 I0.604 J-0.195 F150
G1 X-66.904 Y-84.08 F200
X-66.719 Y-83.873
X-66.552 Y-83.666
X-66.397 Y-83.459
X-66.245 Y-83.252
X-64.591 Y-80.973
X-64.449 Y-80.766
X-64.322 Y-80.559
X-63.966 Y-79.938
X-63.743 Y-79.587
X-63.662 Y-79.461
X-63.575 Y-79.339
X-63.484 Y-79.22
X-63.389 Y-79.104
X-63.29 Y-78.991
X-63.187 Y-78.882
X-63.08 Y-78.776
X-62.971 Y-78.674
X-62.858 Y-78.575
X-62.743 Y-78.479
X-62.625 Y-78.386
X-62.504 Y-78.297
X-62.381 Y-78.211
X-62.256 Y-78.128
X-62.129 Y-78.048
X-62.001 Y-77.971
X-61.87 Y-77.898
X-61.737 Y-77.827
X-61.603 Y-77.76
X-61.468 Y-77.695
X-61.331 Y-77.634
X-61.193 Y-77.575
X-61.054 Y-77.52
X-60.913 Y-77.467
X-60.772 Y-77.417
X-60.629 Y-77.37
X-60.486 Y-77.326
X-60.342 Y-77.285
X-60.197 Y-77.246
X-60.051 Y-77.21
X-59.905 Y-77.176
X-59.758 Y-77.146
X-59.611 Y-77.118
X-59.463 Y-77.093
X-59.315 Y-77.07
X-59.166 Y-77.05
X-59.017 Y-77.032
X-58.868 Y-77.017
X-58.718 Y-77.005
X-58.569 Y-76.995
X-58.419 Y-76.987
X-58.269 Y-76.982
X-58.119 Y-76.979
X-57.969
X-57.819 Y-76.981
X-57.669 Y-76.985
X-57.519 Y-76.992
X-57.37 Y-77.001
X-57.22 Y-77.013
X-57.071 Y-77.027
X-56.921 Y-77.043
X-56.773 Y-77.061
X-56.624 Y-77.082
X-56.476 Y-77.106
X-56.328 Y-77.131
X-56.181 Y-77.159
X-56.034 Y-77.19
X-55.888 Y-77.222
X-55.742 Y-77.258
X-55.597 Y-77.296
X-55.452 Y-77.336
X-55.308 Y-77.378
X-55.165 Y-77.424
X-55.023 Y-77.471
X-54.882 Y-77.521
X-54.741 Y-77.574
X-54.602 Y-77.629
X-54.464 Y-77.688
X-54.327 Y-77.749
X-54.191 Y-77.813
X-54.057 Y-77.88
X-53.924 Y-77.95
X-53.794 Y-78.024
X-53.665 Y-78.101
X-53.538 Y-78.182
X-53.414 Y-78.265
X-53.292 Y-78.352
X-53.172 Y-78.443
X-53.055 Y-78.537
X-52.942 Y-78.635
X-52.831 Y-78.736
X-52.724 Y-78.841
X-52.698 Y-78.868
X-52.517 Y-79.097
X-52.384 Y-79.357
X-52.305 Y-79.639
X-52.283 Y-79.93
X-52.318 Y-80.22
X-52.41 Y-80.497
X-52.554 Y-80.751
X-52.846 Y-81.18
G2 X-53.028 Y-81.348 I-0.513 J0.375
X-53.395 Y-81.44 I-0.33 J0.542
G1 X-63.44 Y-80.866
G2 X-64.036 Y-80.175 I0.036 J0.634
X-63.966 Y-79.938 I0.632 J-0.057 F150
G1 X-62.906 Y-78.073 F200
X-62.789 Y-77.866
X-62.596 Y-77.516
X-62.563 Y-77.452
X-62.535 Y-77.389
X-62.467 Y-77.255
X-62.398 Y-77.123
X-62.321 Y-76.994
X-62.238 Y-76.869
X-62.148 Y-76.749
X-62.053 Y-76.632
X-61.954 Y-76.52
X-61.849 Y-76.412
X-61.741 Y-76.309
X-61.629 Y-76.209
X-61.514 Y-76.113
X-61.395 Y-76.022
X-61.273 Y-75.934
X-61.149 Y-75.85
X-61.022 Y-75.77
X-60.893 Y-75.693
X-60.762 Y-75.62
X-60.629 Y-75.551
X-60.494 Y-75.485
X-60.358 Y-75.423
X-60.22 Y-75.364
X-60.081 Y-75.308
X-59.94 Y-75.256
X-59.798 Y-75.206
X-59.656 Y-75.16
X-59.512 Y-75.117
X-59.367 Y-75.077
X-59.222 Y-75.04
X-59.076 Y-75.006
X-58.929 Y-74.975
X-58.782 Y-74.947
X-58.634 Y-74.921
X-58.486 Y-74.898
X-58.337 Y-74.878
X-58.188 Y-74.861
X-58.039 Y-74.846
X-57.889 Y-74.834
X-57.74 Y-74.825
X-57.59 Y-74.818
X-57.44 Y-74.813
X-57.29 Y-74.811
X-57.14 Y-74.812
X-56.99 Y-74.815
X-56.84 Y-74.821
X-56.69 Y-74.829
X-56.541 Y-74.839
X-56.391 Y-74.852
X-56.242 Y-74.867
X-56.093 Y-74.885
X-55.944 Y-74.905
X-55.796 Y-74.927
X-55.648 Y-74.952
X-55.501 Y-74.979
X-55.354 Y-75.009
X-55.207 Y-75.041
X-55.061 Y-75.075
X-54.916 Y-75.112
X-54.771 Y-75.152
X-54.627 Y-75.193
X-54.483 Y-75.237
X-54.341 Y-75.284
X-54.199 Y-75.333
X-54.058 Y-75.385
X-53.918 Y-75.439
X-53.779 Y-75.495
X-53.641 Y-75.554
X-53.505 Y-75.616
X-53.369 Y-75.68
X-53.235 Y-75.746
X-53.102 Y-75.815
X-52.97 Y-75.888
X-52.84 Y-75.963
X-52.712 Y-76.04
X-52.585 Y-76.121
X-52.461 Y-76.205
X-52.339 Y-76.292
X-52.219 Y-76.382
X-52.102 Y-76.476
X-51.987 Y-76.572
X-51.875 Y-76.672
X-51.767 Y-76.776
X-51.661 Y-76.882
X-51.559 Y-76.992
X-51.46 Y-77.105
X-51.365 Y-77.221
X-51.274 Y-77.34
X-51.257 Y-77.363
X-51.109 Y-77.625
X-51.016 Y-77.911
X-50.984 Y-78.21
X-51.012 Y-78.509
X-51.1 Y-78.797
X-51.244 Y-79.061
X-51.439 Y-79.29
X-51.466 Y-79.316
X-51.617 Y-79.481
X-51.825 Y-79.737
X-52.446 Y-80.598
X-52.554 Y-80.751
G2 X-53.247 Y-80.974 I-0.505 J0.384
G1 X-62.134 Y-78.234
G2 X-62.581 Y-77.633 I0.187 J0.607
X-62.535 Y-77.389 I0.635 J0.005 F150
G1 X-62.471 Y-77.245 F200
X-61.619 Y-75.267
X-61.534 Y-75.093
X-61.467 Y-74.959
X-61.392 Y-74.829
X-61.311 Y-74.703
X-61.223 Y-74.582
X-61.129 Y-74.465
X-61.031 Y-74.352
X-60.927 Y-74.243
X-60.82 Y-74.138
X-60.708 Y-74.038
X-60.593 Y-73.942
X-60.475 Y-73.85
X-60.353 Y-73.762
X-60.229 Y-73.677
X-60.103 Y-73.597
X-59.973 Y-73.521
X-59.842 Y-73.448
X-59.709 Y-73.379
X-59.574 Y-73.313
X-59.438 Y-73.251
X-59.3 Y-73.193
X-59.16 Y-73.138
X-59.019 Y-73.086
X-58.877 Y-73.038
X-58.734 Y-72.992
X-58.59 Y-72.95
X-58.445 Y-72.911
X-58.3 Y-72.875
X-58.153 Y-72.843
X-58.006 Y-72.813
X-57.859 Y-72.786
X-57.711 Y-72.762
X-57.562 Y-72.74
X-57.413 Y-72.722
X-57.264 Y-72.706
X-57.115 Y-72.693
X-56.965 Y-72.683
X-56.815 Y-72.675
X-56.665 Y-72.67
X-56.516 Y-72.667
X-56.366
X-56.216 Y-72.67
X-56.066 Y-72.675
X-55.916 Y-72.683
X-55.766 Y-72.693
X-55.617 Y-72.705
X-55.467 Y-72.72
X-55.318 Y-72.737
X-55.17 Y-72.757
X-55.021 Y-72.779
X-54.873 Y-72.803
X-54.726 Y-72.83
X-54.579 Y-72.859
X-54.432 Y-72.891
X-54.286 Y-72.924
X-54.14 Y-72.96
X-53.995 Y-72.999
X-53.851 Y-73.039
X-53.707 Y-73.082
X-53.564 Y-73.127
X-53.422 Y-73.175
X-53.28 Y-73.225
X-53.14 Y-73.277
X-53 Y-73.332
X-52.861 Y-73.389
X-52.723 Y-73.448
X-52.587 Y-73.51
X-52.451 Y-73.574
X-52.317 Y-73.64
X-52.183 Y-73.709
X-52.051 Y-73.78
X-51.921 Y-73.854
X-51.791 Y-73.93
X-51.663 Y-74.008
X-51.537 Y-74.089
X-51.412 Y-74.172
X-51.289 Y-74.258
X-51.168 Y-74.346
X-51.048 Y-74.437
X-50.931 Y-74.53
X-50.816 Y-74.627
X-50.703 Y-74.726
X-50.593 Y-74.827
X-50.486 Y-74.932
X-50.381 Y-75.04
X-50.28 Y-75.15
X-50.182 Y-75.264
X-50.087 Y-75.38
X-49.996 Y-75.499
X-49.908 Y-75.621
X-49.825 Y-75.746
X-49.745 Y-75.873
X-49.67 Y-76.003
X-49.599 Y-76.135
X-49.585 Y-76.164
X-49.474 Y-76.475
X-49.434 Y-76.802
X-49.467 Y-77.13
X-49.573 Y-77.443
X-49.744 Y-77.724
X-49.974 Y-77.961
X-50.111 Y-78.073
X-50.724 Y-78.629
G2 X-51.298 Y-78.758 I-0.41 J0.485
G1 X-61.192 Y-76.111
G2 X-61.663 Y-75.511 I0.164 J0.613
X-61.619 Y-75.267 I0.635 J0.013 F150
G1 X-61.223 Y-74.345 F200
X-61.142 Y-74.138
X-61.064 Y-73.931
X-60.874 Y-73.309
X-60.823 Y-73.168
X-60.769 Y-73.028
X-60.705 Y-72.892
X-60.634 Y-72.76
X-60.556 Y-72.632
X-60.471 Y-72.509
X-60.38 Y-72.389
X-60.284 Y-72.274
X-60.184 Y-72.163
X-60.078 Y-72.056
X-59.969 Y-71.953
X-59.856 Y-71.855
X-59.739 Y-71.76
X-59.62 Y-71.67
X-59.497 Y-71.583
X-59.372 Y-71.501
X-59.244 Y-71.422
X-59.114 Y-71.347
X-58.982 Y-71.276
X-58.849 Y-71.208
X-58.713 Y-71.144
X-58.576 Y-71.083
X-58.437 Y-71.026
X-58.297 Y-70.972
X-58.156 Y-70.922
X-58.013 Y-70.875
X-57.87 Y-70.831
X-57.726 Y-70.79
X-57.58 Y-70.753
X-57.434 Y-70.718
X-57.288 Y-70.686
X-57.141 Y-70.658
X-56.993 Y-70.632
X-56.845 Y-70.609
X-56.696 Y-70.589
X-56.547 Y-70.571
X-56.398 Y-70.557
X-56.248 Y-70.545
X-56.098 Y-70.535
X-55.949 Y-70.529
X-55.799 Y-70.525
X-55.649 Y-70.523
X-55.499 Y-70.524
X-55.349 Y-70.527
X-55.199 Y-70.533
X-55.049 Y-70.542
X-54.899 Y-70.552
X-54.75 Y-70.565
X-54.601 Y-70.581
X-54.452 Y-70.599
X-54.303 Y-70.619
X-54.155 Y-70.641
X-54.007 Y-70.666
X-53.859 Y-70.693
X-53.712 Y-70.722
X-53.566 Y-70.753
X-53.419 Y-70.787
X-53.274 Y-70.823
X-53.129 Y-70.861
X-52.984 Y-70.901
X-52.84 Y-70.943
X-52.697 Y-70.988
X-52.554 Y-71.034
X-52.413 Y-71.083
X-52.271 Y-71.134
X-52.131 Y-71.187
X-51.992 Y-71.242
X-51.853 Y-71.299
X-51.715 Y-71.359
X-51.578 Y-71.42
X-51.443 Y-71.484
X-51.308 Y-71.55
X-51.174 Y-71.618
X-51.041 Y-71.688
X-50.91 Y-71.76
X-50.78 Y-71.834
X-50.651 Y-71.911
X-50.523 Y-71.989
X-50.396 Y-72.07
X-50.272 Y-72.153
X-50.148 Y-72.238
X-50.026 Y-72.326
X-49.906 Y-72.415
X-49.787 Y-72.506
X-49.67 Y-72.6
X-49.554 Y-72.696
X-49.441 Y-72.794
X-49.329 Y-72.894
X-49.219 Y-72.996
X-49.111 Y-73.101
X-49.006 Y-73.207
X-48.903 Y-73.316
X-48.803 Y-73.428
X-48.705 Y-73.541
X-48.609 Y-73.657
X-48.517 Y-73.776
X-48.428 Y-73.896
X-48.343 Y-74.02
X-48.261 Y-74.145
X-48.182 Y-74.273
X-48.107 Y-74.403
X-48.037 Y-74.535
X-47.97 Y-74.67
X-47.908 Y-74.807
X-47.851 Y-74.945
X-47.797 Y-75.085
X-47.749 Y-75.227
X-47.729 Y-75.293
X-47.67 Y-75.618
X-47.684 Y-75.948
X-47.771 Y-76.267
X-47.927 Y-76.559
X-48.144 Y-76.809
X-48.41 Y-77.005
X-48.825 Y-77.245
X-49.031 Y-77.365
G2 X-49.516 Y-77.413 I-0.3 J0.559
G1 X-60.446 Y-74.08
G2 X-60.89 Y-73.556 I0.185 J0.607
X-60.874 Y-73.309 I0.629 J0.084 F150
G1 X-60.243 Y-71.238 F200
X-60.193 Y-71.096
X-60.139 Y-70.956
X-60.077 Y-70.82
X-60.007 Y-70.687
X-59.93 Y-70.559
X-59.846 Y-70.434
X-59.757 Y-70.313
X-59.663 Y-70.197
X-59.563 Y-70.084
X-59.46 Y-69.976
X-59.352 Y-69.872
X-59.24 Y-69.771
X-59.125 Y-69.675
X-59.007 Y-69.583
X-58.886 Y-69.494
X-58.762 Y-69.41
X-58.636 Y-69.329
X-58.507 Y-69.251
X-58.377 Y-69.178
X-58.244 Y-69.108
X-58.11 Y-69.041
X-57.973 Y-68.978
X-57.836 Y-68.919
X-57.697 Y-68.863
X-57.556 Y-68.81
X-57.415 Y-68.76
X-57.272 Y-68.713
X-57.129 Y-68.67
X-56.984 Y-68.629
X-56.839 Y-68.592
X-56.693 Y-68.558
X-56.546 Y-68.526
X-56.399 Y-68.497
X-56.251 Y-68.472
X-56.103 Y-68.449
X-55.955 Y-68.428
X-55.806 Y-68.411
X-55.656 Y-68.396
X-55.507 Y-68.383
X-55.357 Y-68.373
X-55.207 Y-68.366
X-55.057 Y-68.361
X-54.907 Y-68.359
X-54.757
X-54.607 Y-68.362
X-54.458 Y-68.366
X-54.308 Y-68.374
X-54.158 Y-68.383
X-54.008 Y-68.395
X-53.859 Y-68.409
X-53.71 Y-68.425
X-53.561 Y-68.444
X-53.413 Y-68.464
X-53.264 Y-68.487
X-53.116 Y-68.512
X-52.969 Y-68.539
X-52.822 Y-68.569
X-52.675 Y-68.6
X-52.529 Y-68.633
X-52.383 Y-68.669
X-52.238 Y-68.706
X-52.093 Y-68.746
X-51.949 Y-68.787
X-51.805 Y-68.831
X-51.663 Y-68.876
X-51.52 Y-68.924
X-51.379 Y-68.973
X-51.238 Y-69.024
X-51.097 Y-69.078
X-50.958 Y-69.133
X-50.819 Y-69.19
X-50.682 Y-69.249
X-50.544 Y-69.31
X-50.408 Y-69.373
X-50.273 Y-69.438
X-50.139 Y-69.505
X-50.005 Y-69.573
X-49.873 Y-69.644
X-49.741 Y-69.716
X-49.611 Y-69.79
X-49.482 Y-69.866
X-49.353 Y-69.944
X-49.226 Y-70.024
X-49.101 Y-70.105
X-48.976 Y-70.189
X-48.852 Y-70.274
X-48.73 Y-70.361
X-48.61 Y-70.45
X-48.49 Y-70.541
X-48.372 Y-70.634
X-48.256 Y-70.728
X-48.141 Y-70.825
X-48.028 Y-70.923
X-47.916 Y-71.023
X-47.806 Y-71.125
X-47.698 Y-71.229
X-47.591 Y-71.334
X-47.486 Y-71.442
X-47.384 Y-71.551
X-47.283 Y-71.662
X-47.184 Y-71.775
X-47.087 Y-71.89
X-46.993 Y-72.006
X-46.9 Y-72.124
X-46.81 Y-72.244
X-46.723 Y-72.366
X-46.638 Y-72.489
X-46.555 Y-72.615
X-46.476 Y-72.742
X-46.399 Y-72.871
X-46.326 Y-73.002
X-46.256 Y-73.134
X-46.189 Y-73.269
X-46.127 Y-73.405
X-46.068 Y-73.543
X-46.013 Y-73.683
X-45.962 Y-73.824
X-45.915 Y-73.966
X-45.873 Y-74.11
X-45.836 Y-74.256
X-45.803 Y-74.402
X-45.775 Y-74.549
X-45.752 Y-74.698
X-45.747 Y-74.734
X-45.746 Y-75.072
X-45.821 Y-75.401
X-45.969 Y-75.704
X-46.182 Y-75.967
X-46.449 Y-76.174
X-46.755 Y-76.315
X-47.06 Y-76.416
G2 X-47.307 Y-76.437 I-0.177 J0.61
X-47.45 Y-76.404 I0.069 J0.631
G1 X-59.842 Y-71.997
G2 X-60.258 Y-71.485 I0.213 J0.598
X-60.243 Y-71.238 I0.629 J0.087 F150
G1 X-60.058 Y-70.616 F200
X-60.009 Y-70.409
X-59.903 Y-69.877
X-59.827 Y-69.467
X-59.789 Y-69.308
X-59.753 Y-69.162
X-59.707 Y-69.019
X-59.652 Y-68.88
X-59.589 Y-68.743
X-59.519 Y-68.611
X-59.443 Y-68.482
X-59.36 Y-68.357
X-59.272 Y-68.235
X-59.179 Y-68.118
X-59.081 Y-68.004
X-58.978 Y-67.895
X-58.872 Y-67.789
X-58.762 Y-67.687
X-58.648 Y-67.589
X-58.532 Y-67.495
X-58.412 Y-67.404
X-58.29 Y-67.317
X-58.165 Y-67.234
X-58.038 Y-67.154
X-57.909 Y-67.078
X-57.778 Y-67.005
X-57.645 Y-66.935
X-57.51 Y-66.869
X-57.374 Y-66.807
X-57.236 Y-66.747
X-57.097 Y-66.691
X-56.957 Y-66.638
X-56.816 Y-66.588
X-56.673 Y-66.541
X-56.53 Y-66.497
X-56.385 Y-66.456
X-56.24 Y-66.417
X-56.095 Y-66.382
X-55.948 Y-66.349
X-55.801 Y-66.32
X-55.654 Y-66.292
X-55.506 Y-66.268
X-55.357 Y-66.246
X-55.209 Y-66.227
X-55.059 Y-66.21
X-54.91 Y-66.196
X-54.761 Y-66.184
X-54.611 Y-66.174
X-54.461 Y-66.167
X-54.311 Y-66.163
X-54.161 Y-66.16
X-54.011
X-53.861 Y-66.163
X-53.711 Y-66.167
X-53.561 Y-66.174
X-53.412 Y-66.183
X-53.262 Y-66.194
X-53.113 Y-66.207
X-52.963 Y-66.222
X-52.814 Y-66.239
X-52.666 Y-66.259
X-52.517 Y-66.28
X-52.369 Y-66.303
X-52.221 Y-66.329
X-52.074 Y-66.356
X-51.927 Y-66.385
X-51.78 Y-66.417
X-51.634 Y-66.45
X-51.488 Y-66.485
X-51.342 Y-66.522
X-51.197 Y-66.56
X-51.053 Y-66.601
X-50.909 Y-66.643
X-50.766 Y-66.688
X-50.623 Y-66.734
X-50.481 Y-66.782
X-50.339 Y-66.831
X-50.198 Y-66.883
X-50.058 Y-66.936
X-49.919 Y-66.991
X-49.78 Y-67.047
X-49.642 Y-67.106
X-49.504 Y-67.166
X-49.367 Y-67.228
X-49.232 Y-67.291
X-49.096 Y-67.356
X-48.962 Y-67.423
X-48.829 Y-67.492
X-48.696 Y-67.562
X-48.564 Y-67.634
X-48.434 Y-67.707
X-48.304 Y-67.782
X-48.175 Y-67.859
X-48.047 Y-67.937
X-47.92 Y-68.017
X-47.794 Y-68.099
X-47.67 Y-68.182
X-47.546 Y-68.267
X-47.423 Y-68.354
X-47.302 Y-68.442
X-47.182 Y-68.531
X-47.063 Y-68.623
X-46.945 Y-68.715
X-46.828 Y-68.81
X-46.713 Y-68.906
X-46.599 Y-69.003
X-46.486 Y-69.102
X-46.375 Y-69.202
X-46.265 Y-69.305
X-46.156 Y-69.408
X-46.049 Y-69.513
X-45.944 Y-69.62
X-45.84 Y-69.728
X-45.738 Y-69.838
X-45.637 Y-69.949
X-45.538 Y-70.062
X-45.441 Y-70.176
X-45.346 Y-70.292
X-45.252 Y-70.409
X-45.161 Y-70.528
X-45.071 Y-70.648
X-44.983 Y-70.77
X-44.898 Y-70.893
X-44.814 Y-71.018
X-44.733 Y-71.144
X-44.654 Y-71.272
X-44.577 Y-71.4
X-44.503 Y-71.531
X-44.431 Y-71.662
X-44.361 Y-71.795
X-44.294 Y-71.929
X-44.229 Y-72.065
X-44.168 Y-72.201
X-44.11 Y-72.34
X-44.054 Y-72.479
X-44.002 Y-72.62
X-43.954 Y-72.762
X-43.909 Y-72.905
X-43.868 Y-73.049
X-43.831 Y-73.195
X-43.798 Y-73.341
X-43.769 Y-73.488
X-43.745 Y-73.636
X-43.725 Y-73.785
X-43.71 Y-73.934
X-43.7 Y-74.084
X-43.694 Y-74.234
Y-74.384
X-43.696 Y-74.448
X-43.735 Y-74.748
X-43.835 Y-75.033
X-43.991 Y-75.293
X-44.196 Y-75.515
X-44.442 Y-75.691
X-44.719 Y-75.813
X-45.015 Y-75.877
X-45.196 Y-75.897
X-45.403 Y-75.924
X-45.61 Y-75.96
X-45.775 Y-76.002
X-45.817 Y-76.013
X-45.868 Y-76.019 Z-6.995
X-45.918 Y-76.025 Z-6.978
X-45.962 Y-76.03 Z-6.952
X-46.005 Y-76.027 Z-6.913
X-46.038 Y-76.024 Z-6.864
X-46.058 Y-76.022 Z-6.809
X-46.065 Z-6.751
G0 Z5
X-31.023 Y-83.916
Z-5.73
G1 Z-6.365 F150
X-31.029 Y-83.911 Z-6.464
X-31.046 Y-83.895 Z-6.561
X-31.075 Y-83.87 Z-6.653
X-31.114 Y-83.835 Z-6.738
X-31.162 Y-83.792 Z-6.814
X-31.219 Y-83.742 Z-6.879
X-31.282 Y-83.686 Z-6.931
X-31.351 Y-83.624 Z-6.969
X-31.423 Y-83.56 Z-6.992
X-31.498 Y-83.494 Z-7
G2 X-33.843 Y-80.907 I10.768 J12.119
G1 X-33.938 Y-80.766 F200
X-34.009 Y-80.665
X-34.424 Y-80.099
X-34.852 Y-79.523
X-35.045 Y-79.314
X-35.479 Y-78.902
X-35.874 Y-78.548
X-36.406 Y-78.073
X-36.702 Y-77.84
X-36.91 Y-77.696
X-37.117 Y-77.573
X-37.643 Y-77.225
X-37.767 Y-77.141
X-37.889 Y-77.054
X-38.088 Y-76.942
X-38.279 Y-76.869
X-38.369 Y-76.838
X-38.457 Y-76.801
X-38.543 Y-76.758
X-38.567 Y-76.745
X-38.774 Y-76.646
X-39.395 Y-76.43
X-40.431 Y-76.098
X-40.736 Y-76.002
X-40.845 Y-75.98
X-41.26 Y-75.905
X-41.467 Y-75.874
X-42.71 Y-75.749
X-43.331 Y-75.71
X-43.538 Y-75.725
X-43.953 Y-75.761
X-44.067 Y-75.773
X-44.111 Y-75.775 Z-6.996
X-44.166 Y-75.766 Z-6.979
X-44.214 Y-75.758 Z-6.95
X-44.256 Y-75.751 Z-6.91
X-44.287 Y-75.746 Z-6.862
X-44.306 Y-75.743 Z-6.808
X-44.312 Y-75.742 Z-6.751
G0 Z5
X-59.815 Y-69.714
Z-6.365
G1 Z-7 F150
G2 X-59.827 Y-69.467 I0.616 J0.153
G1 X-59.44 Y-67.395 F200
X-59.402 Y-67.239
X-59.366 Y-67.093
X-59.321 Y-66.95
X-59.267 Y-66.81
X-59.206 Y-66.673
X-59.137 Y-66.54
X-59.062 Y-66.41
X-58.981 Y-66.284
X-58.895 Y-66.161
X-58.804 Y-66.042
X-58.708 Y-65.927
X-58.608 Y-65.815
X-58.503 Y-65.707
X-58.396 Y-65.603
X-58.284 Y-65.502
X-58.17 Y-65.405
X-58.053 Y-65.312
X-57.933 Y-65.222
X-57.81 Y-65.135
X-57.685 Y-65.052
X-57.558 Y-64.973
X-57.429 Y-64.897
X-57.298 Y-64.824
X-57.165 Y-64.754
X-57.03 Y-64.687
X-56.895 Y-64.624
X-56.757 Y-64.564
X-56.619 Y-64.506
X-56.479 Y-64.452
X-56.338 Y-64.401
X-56.196 Y-64.352
X-56.053 Y-64.307
X-55.909 Y-64.264
X-55.765 Y-64.224
X-55.619 Y-64.186
X-55.473 Y-64.152
X-55.327 Y-64.12
X-55.18 Y-64.09
X-55.032 Y-64.063
X-54.884 Y-64.039
X-54.736 Y-64.017
X-54.587 Y-63.997
X-54.438 Y-63.98
X-54.289 Y-63.965
X-54.139 Y-63.952
X-53.99 Y-63.942
X-53.84 Y-63.934
X-53.69 Y-63.928
X-53.54 Y-63.925
X-53.39 Y-63.923
X-53.24 Y-63.924
X-53.09 Y-63.927
X-52.94 Y-63.932
X-52.79 Y-63.939
X-52.641 Y-63.948
X-52.491 Y-63.959
X-52.342 Y-63.971
X-52.192 Y-63.986
X-52.043 Y-64.003
X-51.894 Y-64.022
X-51.746 Y-64.042
X-51.598 Y-64.065
X-51.45 Y-64.089
X-51.302 Y-64.115
X-51.154 Y-64.143
X-51.007 Y-64.173
X-50.861 Y-64.204
X-50.714 Y-64.237
X-50.569 Y-64.272
X-50.423 Y-64.309
X-50.278 Y-64.347
X-50.134 Y-64.387
X-49.99 Y-64.429
X-49.846 Y-64.473
X-49.622 Y-64.516
X-49.394 Y-64.525
X-49.168 Y-64.498
X-48.948 Y-64.438
X-48.74 Y-64.344
X-48.55 Y-64.219
X-48.38 Y-64.067
X-48.236 Y-63.89
X-48.12 Y-63.694
X-48.036 Y-63.482
X-47.986 Y-63.26
X-47.97 Y-63.032
X-47.99 Y-62.805
X-48.206 Y-61.919
X-48.64 Y-61.117
X-49.081 Y-60.319
X-49.527 Y-59.524
X-49.977 Y-58.731
X-50.43 Y-57.94
X-50.884 Y-57.149
X-51.34 Y-56.359
X-52.253 Y-54.781
X-53.627 Y-52.415
X-56.511 Y-47.457
X-56.642 Y-47.161
X-56.706 Y-46.844
X-56.7 Y-46.521
X-56.385 Y-44.103
X-56.367 Y-44.051 Z-6.994
X-56.35 Y-44.002 Z-6.975
X-56.334 Y-43.957 Z-6.945
X-56.321 Y-43.92 Z-6.906
X-56.311 Y-43.893 Z-6.859
X-56.301 Y-43.877 Z-6.806
X-56.298 Y-43.871 Z-6.751
G0 Z5
X-59.428 Y-67.643
Z-6.365
G1 Z-7 F150
G2 X-59.44 Y-67.395 I0.616 J0.153
G1 X-59.385 Y-67.095 F200
X-59.294 Y-66.474
X-59.159 Y-65.438
X-59.129 Y-65.276
X-59.102 Y-65.129
X-59.064 Y-64.984
X-59.018 Y-64.841
X-58.964 Y-64.701
X-58.902 Y-64.564
X-58.834 Y-64.43
X-58.76 Y-64.3
X-58.68 Y-64.173
X-58.595 Y-64.05
X-58.505 Y-63.93
X-58.411 Y-63.813
X-58.312 Y-63.7
X-58.209 Y-63.591
X-58.103 Y-63.485
X-57.994 Y-63.382
X-57.881 Y-63.283
X-57.766 Y-63.187
X-57.648 Y-63.095
X-57.527 Y-63.006
X-57.404 Y-62.92
X-57.279 Y-62.837
X-57.151 Y-62.758
X-57.022 Y-62.682
X-56.891 Y-62.609
X-56.758 Y-62.539
X-56.624 Y-62.472
X-56.488 Y-62.408
X-56.351 Y-62.347
X-56.213 Y-62.289
X-56.074 Y-62.233
X-55.933 Y-62.181
X-55.792 Y-62.131
X-55.649 Y-62.084
X-55.506 Y-62.039
X-55.362 Y-61.997
X-55.151 Y-61.912
X-54.955 Y-61.795
X-54.78 Y-61.65
X-54.629 Y-61.479
X-54.505 Y-61.287
X-54.321 Y-60.87
X-54.18 Y-59.969
X-54.221 Y-59.058
X-54.387 Y-58.162
X-54.64 Y-57.286
X-54.954 Y-56.43
X-55.31 Y-55.59
X-55.696 Y-54.764
X-56.104 Y-53.949
X-56.526 Y-53.14
X-56.958 Y-52.338
X-57.127 Y-52.033
X-57.248 Y-51.745
X-57.306 Y-51.438
X-57.298 Y-51.126
X-56.822 Y-47.459
G2 X-56.734 Y-47.227 I0.626 J-0.104
G1 X-56.682 Y-47.143 Z-6.992
X-56.631 Y-47.061 Z-6.969
X-56.582 Y-46.983 Z-6.931
X-56.537 Y-46.91 Z-6.879
X-56.497 Y-46.846 Z-6.814
X-56.463 Y-46.791 Z-6.738
X-56.435 Y-46.747 Z-6.653
X-56.415 Y-46.715 Z-6.561
X-56.403 Y-46.695 Z-6.464
X-56.399 Y-46.688 Z-6.365
G0 Z5
X-58.416 Y-65.838
Z-5.73
G1 Z-6.365 F150
X-58.423 Y-65.835 Z-6.464
X-58.445 Y-65.828 Z-6.561
X-58.482 Y-65.817 Z-6.653
X-58.531 Y-65.801 Z-6.738
X-58.593 Y-65.781 Z-6.814
X-58.665 Y-65.759 Z-6.879
X-58.746 Y-65.733 Z-6.931
X-58.834 Y-65.705 Z-6.969
X-58.926 Y-65.676 Z-6.992
X-59.021 Y-65.646 Z-7
G2 X-59.159 Y-65.438 I0.06 J0.189
G1 X-58.889 Y-63.367 F200
X-58.847 Y-63.133
X-58.819 Y-62.986
X-58.782 Y-62.84
X-58.737 Y-62.697
X-58.683 Y-62.557
X-58.623 Y-62.42
X-58.556 Y-62.286
X-58.118 Y-61.486
X-57.866 Y-60.609
X-57.781 Y-59.702
X-57.829 Y-58.791
X-57.98 Y-57.892
X-58.04 Y-57.662
X-58.075 Y-57.477
X-58.087 Y-57.288
X-58.075 Y-57.099
G2 X-56.819 Y-57.285 I0.626 J-0.104
G1 X-57.628 Y-63.508
G2 X-58.864 Y-63.613 I-0.63 J0.082
X-58.889 Y-63.367 I0.607 J0.187 F150
G1 X-58.208 Y-58.126 F200
X-58.19 Y-58.074 Z-6.994
X-58.172 Y-58.024 Z-6.975
X-58.157 Y-57.98 Z-6.945
X-58.143 Y-57.943 Z-6.906
X-58.134 Y-57.915 Z-6.859
X-58.124 Y-57.899 Z-6.806
X-58.121 Y-57.894 Z-6.751
G0 Z5
X-68.223 Y-86.698
Z-5.73
G1 Z-6.365 F150
X-68.228 Y-86.691 Z-6.464
X-68.242 Y-86.673 Z-6.561
X-68.265 Y-86.643 Z-6.653
X-68.297 Y-86.601 Z-6.738
X-68.336 Y-86.55 Z-6.814
X-68.382 Y-86.49 Z-6.879
X-68.434 Y-86.423 Z-6.931
X-68.49 Y-86.35 Z-6.969
X-68.549 Y-86.273 Z-6.992
X-68.609 Y-86.194 Z-7
G2 X-68.603 Y-85.945 I0.157 J0.121
G1 X-67.471 Y-84.702 F200
X-67.426 Y-84.67 Z-6.994
X-67.383 Y-84.64 Z-6.975
X-67.345 Y-84.612 Z-6.945
X-67.313 Y-84.59 Z-6.906
X-67.289 Y-84.573 Z-6.859
X-67.272 Y-84.565 Z-6.806
X-67.266 Y-84.562 Z-6.751
G0 Z5
X-130.695 Y-83.748
Z-5.73
G1 Z-6.365 F150
X-130.703 Y-83.749 Z-6.464
X-130.726 Y-83.751 Z-6.561
X-130.764 Y-83.754 Z-6.653
X-130.816 Y-83.759 Z-6.738
X-130.881 Y-83.765 Z-6.814
X-130.956 Y-83.772 Z-6.879
X-131.041 Y-83.779 Z-6.931
X-131.133 Y-83.787 Z-6.969
X-131.229 Y-83.796 Z-6.992
X-131.328 Y-83.805 Z-7
G2 X-131.535 Y-83.666 I-0.018 J0.198
G1 X-131.592 Y-83.459 F200
X-131.654 Y-83.252
X-131.992 Y-82.48
X-132.046 Y-82.34
X-132.095 Y-82.199
X-132.13 Y-82.053
X-132.152 Y-81.904
X-132.163 Y-81.755
Y-81.605
X-132.153 Y-81.455
X-132.134 Y-81.306
X-132.105 Y-81.159
X-132.069 Y-81.014
X-132.024 Y-80.87
X-131.973 Y-80.73
X-131.914 Y-80.591
X-131.85 Y-80.456
X-131.779 Y-80.324
X-131.702 Y-80.195
X-131.62 Y-80.069
X-131.533 Y-79.947
X-131.442 Y-79.828
X-131.346 Y-79.713
X-131.245 Y-79.602
X-131.141 Y-79.494
X-131.033 Y-79.389
X-130.922 Y-79.289
X-130.807 Y-79.192
X-130.69 Y-79.099
X-130.569 Y-79.01
X-130.446 Y-78.924
X-130.321 Y-78.842
X-130.193 Y-78.764
X-130.062 Y-78.689
X-129.93 Y-78.618
X-129.796 Y-78.551
X-129.661 Y-78.487
X-129.523 Y-78.427
X-129.384 Y-78.37
X-129.244 Y-78.317
X-129.103 Y-78.267
X-128.96 Y-78.221
X-128.816 Y-78.177
X-128.672 Y-78.138
X-128.526 Y-78.101
X-128.38 Y-78.068
X-128.233 Y-78.038
X-128.085 Y-78.011
X-127.937 Y-77.988
X-127.789 Y-77.967
X-127.64 Y-77.949
X-127.49 Y-77.935
X-127.341 Y-77.923
X-127.191 Y-77.914
X-127.041 Y-77.908
X-126.891 Y-77.905
X-126.741 Y-77.904
X-126.591 Y-77.906
X-126.441 Y-77.911
X-126.291 Y-77.918
X-126.142 Y-77.928
X-125.992 Y-77.941
X-125.843 Y-77.956
X-125.694 Y-77.973
X-125.545 Y-77.993
X-125.397 Y-78.015
X-125.249 Y-78.039
X-125.101 Y-78.066
X-124.954 Y-78.094
X-124.807 Y-78.125
X-124.661 Y-78.158
X-124.515 Y-78.193
X-124.37 Y-78.23
X-124.225 Y-78.269
X-124.081 Y-78.31
X-123.937 Y-78.353
X-123.794 Y-78.398
X-123.651 Y-78.445
X-123.509 Y-78.493
X-123.368 Y-78.543
X-123.227 Y-78.595
X-123.087 Y-78.648
X-122.947 Y-78.703
X-122.809 Y-78.76
X-122.67 Y-78.818
X-122.533 Y-78.878
X-122.393 Y-78.94
X-122.128 Y-79.097
X-121.901 Y-79.304
X-121.722 Y-79.554
X-121.386 Y-80.145
X-121.148 Y-80.559
X-121.022 Y-80.766
X-120.88 Y-80.973
X-119.149 Y-83.357
X-119.074 Y-83.459
X-118.919 Y-83.666
X-118.751 Y-83.873
X-118.566 Y-84.08
X-116.908 Y-85.9
G2 X-116.787 Y-86.117 I-0.484 J-0.411
X-117.57 Y-86.921 I-0.604 J-0.195
G1 X-131.599 Y-82.814
G2 X-131.843 Y-82.678 I0.178 J0.609
X-131.992 Y-82.48 I0.423 J0.474 F150
G1 X-132.291 Y-81.802 F200
X-132.388 Y-81.595
X-132.489 Y-81.388
X-132.558 Y-81.282
X-132.633 Y-81.152
X-132.699 Y-81.018
X-132.753 Y-80.878
X-132.794 Y-80.733
X-132.824 Y-80.586
X-132.844 Y-80.438
X-132.854 Y-80.288
X-132.855 Y-80.138
X-132.847 Y-79.988
X-132.831 Y-79.839
X-132.807 Y-79.691
X-132.776 Y-79.544
X-132.738 Y-79.399
X-132.693 Y-79.256
X-132.643 Y-79.115
X-132.586 Y-78.976
X-132.524 Y-78.839
X-132.457 Y-78.705
X-132.384 Y-78.574
X-132.307 Y-78.445
X-132.226 Y-78.319
X-132.14 Y-78.196
X-132.05 Y-78.076
X-131.957 Y-77.959
X-131.86 Y-77.844
X-131.759 Y-77.733
X-131.655 Y-77.625
X-131.548 Y-77.52
X-131.439 Y-77.418
X-131.326 Y-77.318
X-131.211 Y-77.222
X-131.093 Y-77.13
X-130.973 Y-77.04
X-130.85 Y-76.953
X-130.726 Y-76.869
X-130.6 Y-76.788
X-130.471 Y-76.711
X-130.341 Y-76.636
X-130.21 Y-76.564
X-130.076 Y-76.495
X-129.942 Y-76.429
X-129.805 Y-76.366
X-129.668 Y-76.306
X-129.529 Y-76.249
X-129.389 Y-76.195
X-129.249 Y-76.143
X-129.107 Y-76.094
X-128.964 Y-76.048
X-128.82 Y-76.005
X-128.676 Y-75.965
X-128.531 Y-75.927
X-128.385 Y-75.892
X-128.239 Y-75.859
X-128.092 Y-75.829
X-127.944 Y-75.802
X-127.796 Y-75.777
X-127.648 Y-75.754
X-127.499 Y-75.734
X-127.35 Y-75.717
X-127.201 Y-75.702
X-127.052 Y-75.689
X-126.902 Y-75.679
X-126.752 Y-75.671
X-126.602 Y-75.665
X-126.452 Y-75.662
X-126.302 Y-75.66
X-126.152 Y-75.661
X-126.002 Y-75.664
X-125.852 Y-75.67
X-125.703 Y-75.677
X-125.553 Y-75.687
X-125.403 Y-75.698
X-125.254 Y-75.712
X-125.105 Y-75.727
X-124.956 Y-75.745
X-124.807 Y-75.764
X-124.659 Y-75.786
X-124.51 Y-75.809
X-124.324 Y-75.841
X-124.044 Y-75.921
X-123.785 Y-76.055
X-123.557 Y-76.236
X-123.369 Y-76.458
X-123.229 Y-76.713
X-123 Y-77.245
X-122.908 Y-77.452
X-122.877 Y-77.509
X-122.67 Y-77.886
X-122.565 Y-78.073
X-122.176 Y-78.757
G2 X-122.613 Y-79.675 I-0.563 J-0.295
G1 X-131.912 Y-81.541
G2 X-132.379 Y-81.454 I-0.125 J0.623
X-132.558 Y-81.282 I0.342 J0.535 F150
G1 X-132.624 Y-81.18 F200
X-132.905 Y-80.766
X-133.052 Y-80.559
X-133.351 Y-80.145
X-133.433 Y-80.019
X-133.511 Y-79.891
X-133.578 Y-79.757
X-133.634 Y-79.618
X-133.681 Y-79.475
X-133.717 Y-79.329
X-133.745 Y-79.182
X-133.763 Y-79.033
X-133.774 Y-78.884
X-133.777 Y-78.734
X-133.772 Y-78.584
X-133.761 Y-78.434
X-133.742 Y-78.285
X-133.717 Y-78.137
X-133.686 Y-77.99
X-133.65 Y-77.845
X-133.607 Y-77.701
X-133.56 Y-77.559
X-133.507 Y-77.418
X-133.45 Y-77.28
X-133.387 Y-77.143
X-133.321 Y-77.009
X-133.25 Y-76.877
X-133.175 Y-76.747
X-133.097 Y-76.619
X-133.014 Y-76.494
X-132.928 Y-76.371
X-132.839 Y-76.25
X-132.746 Y-76.132
X-132.651 Y-76.017
X-132.552 Y-75.903
X-132.451 Y-75.793
X-132.347 Y-75.685
X-132.24 Y-75.579
X-132.131 Y-75.476
X-132.02 Y-75.376
X-131.906 Y-75.278
X-131.79 Y-75.183
X-131.672 Y-75.09
X-131.552 Y-75
X-131.431 Y-74.912
X-131.307 Y-74.827
X-131.182 Y-74.745
X-131.055 Y-74.665
X-130.927 Y-74.587
X-130.797 Y-74.512
X-130.666 Y-74.439
X-130.533 Y-74.369
X-130.399 Y-74.302
X-130.264 Y-74.236
X-130.128 Y-74.173
X-129.991 Y-74.113
X-129.852 Y-74.055
X-129.713 Y-73.999
X-129.573 Y-73.946
X-129.432 Y-73.895
X-129.29 Y-73.846
X-129.147 Y-73.8
X-129.004 Y-73.756
X-128.86 Y-73.714
X-128.715 Y-73.674
X-128.57 Y-73.637
X-128.424 Y-73.602
X-128.278 Y-73.569
X-128.131 Y-73.538
X-127.984 Y-73.509
X-127.836 Y-73.483
X-127.688 Y-73.458
X-127.54 Y-73.436
X-127.391 Y-73.415
X-127.242 Y-73.397
X-127.093 Y-73.381
X-126.944 Y-73.366
X-126.794 Y-73.354
X-126.645 Y-73.344
X-126.495 Y-73.336
X-126.345 Y-73.33
X-126.195 Y-73.327
X-126.045 Y-73.326
X-125.895 Y-73.328
X-125.745 Y-73.334
X-125.595 Y-73.342
X-125.535 Y-73.347
X-125.209 Y-73.41
X-124.905 Y-73.543
X-124.639 Y-73.741
X-124.424 Y-73.994
X-124.27 Y-74.288
X-124.248 Y-74.345
X-123.597 Y-75.858
G2 X-123.941 Y-76.673 I-0.592 J-0.23
G1 X-132.602 Y-80.34
G2 X-133.164 Y-80.307 I-0.248 J0.585
X-133.351 Y-80.145 I0.314 J0.552 F150
G1 X-133.651 Y-79.73 F200
X-133.856 Y-79.477
X-134.005 Y-79.316
X-134.22 Y-79.109
X-134.324 Y-79
X-134.421 Y-78.886
X-134.507 Y-78.763
X-134.584 Y-78.634
X-134.651 Y-78.5
X-134.709 Y-78.362
X-134.758 Y-78.22
X-134.799 Y-78.076
X-134.832 Y-77.929
X-134.857 Y-77.782
X-134.875 Y-77.633
X-134.886 Y-77.483
X-134.89 Y-77.333
X-134.888 Y-77.183
X-134.879 Y-77.033
X-134.865 Y-76.884
X-134.845 Y-76.735
X-134.82 Y-76.588
X-134.789 Y-76.441
X-134.753 Y-76.295
X-134.713 Y-76.151
X-134.668 Y-76.008
X-134.618 Y-75.866
X-134.564 Y-75.726
X-134.506 Y-75.588
X-134.445 Y-75.451
X-134.379 Y-75.316
X-134.31 Y-75.183
X-134.237 Y-75.052
X-134.161 Y-74.923
X-134.081 Y-74.795
X-133.999 Y-74.67
X-133.913 Y-74.547
X-133.825 Y-74.426
X-133.734 Y-74.307
X-133.64 Y-74.19
X-133.544 Y-74.075
X-133.445 Y-73.962
X-133.343 Y-73.851
X-133.24 Y-73.743
X-133.134 Y-73.636
X-133.026 Y-73.532
X-132.916 Y-73.43
X-132.804 Y-73.33
X-132.69 Y-73.232
X-132.575 Y-73.137
X-132.457 Y-73.044
X-132.338 Y-72.952
X-132.218 Y-72.863
X-132.096 Y-72.776
X-131.972 Y-72.691
X-131.847 Y-72.609
X-131.72 Y-72.528
X-131.592 Y-72.45
X-131.463 Y-72.373
X-131.333 Y-72.299
X-131.201 Y-72.227
X-131.069 Y-72.157
X-130.935 Y-72.089
X-130.8 Y-72.023
X-130.665 Y-71.959
X-130.528 Y-71.897
X-130.391 Y-71.837
X-130.252 Y-71.779
X-130.113 Y-71.723
X-129.973 Y-71.669
X-129.832 Y-71.617
X-129.691 Y-71.568
X-129.549 Y-71.52
X-129.406 Y-71.473
X-129.263 Y-71.429
X-129.119 Y-71.387
X-128.974 Y-71.347
X-128.829 Y-71.309
X-128.683 Y-71.273
X-128.537 Y-71.238
X-128.391 Y-71.206
X-128.244 Y-71.176
X-128.097 Y-71.148
X-127.949 Y-71.122
X-127.801 Y-71.099
X-127.652 Y-71.078
X-127.503 Y-71.061
X-127.354 Y-71.045
X-127.204 Y-71.033
X-127.055 Y-71.024
X-126.905 Y-71.019
X-126.755 Y-71.017
X-126.605 Y-71.019
X-126.455 Y-71.024
X-126.305 Y-71.034
X-126.255 Y-71.038
X-125.968 Y-71.093
X-125.697 Y-71.203
X-125.453 Y-71.364
X-125.246 Y-71.57
X-125.082 Y-71.812
X-124.97 Y-72.082
X-124.609 Y-73.267
G2 X-124.593 Y-73.515 I-0.614 J-0.164
X-124.893 Y-73.974 I-0.629 J0.083
G1 X-133.469 Y-79.177
G2 X-134.006 Y-79.234 I-0.329 J0.543
X-134.22 Y-79.109 I0.208 J0.6 F150
G1 X-134.271 Y-79.061 F200
X-135.307 Y-78.122
X-135.446 Y-77.982
X-135.551 Y-77.875
X-135.647 Y-77.76
X-135.735 Y-77.638
X-135.813 Y-77.51
X-135.884 Y-77.378
X-135.946 Y-77.241
X-136.001 Y-77.102
X-136.049 Y-76.96
X-136.089 Y-76.815
X-136.122 Y-76.669
X-136.149 Y-76.521
X-136.17 Y-76.373
X-136.184 Y-76.223
X-136.193 Y-76.074
X-136.195 Y-75.924
X-136.193 Y-75.774
X-136.185 Y-75.624
X-136.171 Y-75.475
X-136.153 Y-75.326
X-136.13 Y-75.177
X-136.103 Y-75.03
X-136.071 Y-74.883
X-136.035 Y-74.738
X-135.994 Y-74.593
X-135.95 Y-74.45
X-135.902 Y-74.308
X-135.85 Y-74.167
X-135.795 Y-74.028
X-135.736 Y-73.89
X-135.673 Y-73.753
X-135.608 Y-73.619
X-135.539 Y-73.485
X-135.467 Y-73.353
X-135.393 Y-73.223
X-135.315 Y-73.095
X-135.235 Y-72.968
X-135.152 Y-72.843
X-135.067 Y-72.72
X-134.979 Y-72.598
X-134.889 Y-72.478
X-134.796 Y-72.36
X-134.701 Y-72.244
X-134.604 Y-72.13
X-134.505 Y-72.017
X-134.404 Y-71.907
X-134.301 Y-71.798
X-134.196 Y-71.69
X-134.089 Y-71.585
X-133.98 Y-71.482
X-133.87 Y-71.38
X-133.758 Y-71.28
X-133.644 Y-71.183
X-133.529 Y-71.086
X-133.412 Y-70.992
X-133.294 Y-70.9
X-133.175 Y-70.809
X-133.054 Y-70.721
X-132.931 Y-70.634
X-132.808 Y-70.549
X-132.683 Y-70.465
X-132.557 Y-70.384
X-132.43 Y-70.304
X-132.302 Y-70.226
X-132.172 Y-70.15
X-132.042 Y-70.076
X-131.911 Y-70.004
X-131.778 Y-69.933
X-131.645 Y-69.864
X-131.511 Y-69.797
X-131.376 Y-69.732
X-131.24 Y-69.668
X-131.103 Y-69.606
X-130.966 Y-69.546
X-130.828 Y-69.488
X-130.689 Y-69.432
X-130.549 Y-69.378
X-130.408 Y-69.325
X-130.267 Y-69.274
X-130.125 Y-69.226
X-129.983 Y-69.179
X-129.84 Y-69.134
X-129.696 Y-69.091
X-129.552 Y-69.05
X-129.407 Y-69.011
X-129.261 Y-68.975
X-129.115 Y-68.94
X-128.969 Y-68.908
X-128.822 Y-68.878
X-128.675 Y-68.85
X-128.527 Y-68.825
X-128.378 Y-68.802
X-128.23 Y-68.783
X-128.081 Y-68.766
X-127.931 Y-68.752
X-127.782 Y-68.742
X-127.632 Y-68.736
X-127.482 Y-68.733
X-127.332
X-127.182 Y-68.737
X-127.032 Y-68.746
X-126.883 Y-68.759
X-126.839 Y-68.764
X-126.535 Y-68.831
X-126.251 Y-68.961
X-126.002 Y-69.147
X-125.796 Y-69.381
X-125.644 Y-69.653
X-125.552 Y-69.95
X-125.462 Y-70.409
X-125.413 Y-70.616
X-125.255 Y-71.145
G2 X-125.24 Y-71.392 I-0.614 J-0.161
X-125.505 Y-71.825 I-0.629 J0.087
G1 X-134.532 Y-78.157
G2 X-135.09 Y-78.242 I-0.365 J0.52
X-135.307 Y-78.122 I0.193 J0.605 F150
G1 X-135.36 Y-78.073 F200
X-135.514 Y-77.947
X-135.622 Y-77.866
X-136.135 Y-77.546
X-136.29 Y-77.452
X-136.456 Y-77.355
X-136.582 Y-77.273
X-136.703 Y-77.185
X-136.817 Y-77.087
X-136.923 Y-76.981
X-137.021 Y-76.868
X-137.112 Y-76.749
X-137.196 Y-76.624
X-137.273 Y-76.495
X-137.342 Y-76.362
X-137.405 Y-76.226
X-137.462 Y-76.087
X-137.512 Y-75.946
X-137.556 Y-75.802
X-137.594 Y-75.657
X-137.626 Y-75.511
X-137.653 Y-75.363
X-137.674 Y-75.215
X-137.69 Y-75.066
X-137.7 Y-74.916
X-137.706 Y-74.766
X-137.707 Y-74.616
X-137.704 Y-74.466
X-137.695 Y-74.316
X-137.683 Y-74.167
X-137.666 Y-74.018
X-137.645 Y-73.869
X-137.62 Y-73.721
X-137.591 Y-73.574
X-137.558 Y-73.428
X-137.522 Y-73.282
X-137.482 Y-73.138
X-137.439 Y-72.994
X-137.393 Y-72.851
X-137.343 Y-72.71
X-137.29 Y-72.57
X-137.234 Y-72.43
X-137.175 Y-72.292
X-137.113 Y-72.156
X-137.048 Y-72.02
X-136.981 Y-71.886
X-136.911 Y-71.754
X-136.839 Y-71.622
X-136.764 Y-71.493
X-136.686 Y-71.364
X-136.606 Y-71.237
X-136.524 Y-71.111
X-136.44 Y-70.987
X-136.354 Y-70.865
X-136.265 Y-70.744
X-136.174 Y-70.624
X-136.082 Y-70.506
X-135.987 Y-70.39
X-135.891 Y-70.275
X-135.793 Y-70.161
X-135.693 Y-70.049
X-135.591 Y-69.939
X-135.488 Y-69.83
X-135.383 Y-69.723
X-135.277 Y-69.617
X-135.169 Y-69.513
X-135.059 Y-69.411
X-134.948 Y-69.31
X-134.836 Y-69.211
X-134.722 Y-69.113
X-134.607 Y-69.017
X-134.49 Y-68.922
X-134.372 Y-68.829
X-134.253 Y-68.738
X-134.133 Y-68.648
X-134.012 Y-68.56
X-133.89 Y-68.473
X-133.766 Y-68.388
X-133.641 Y-68.305
X-133.516 Y-68.223
X-133.389 Y-68.143
X-133.261 Y-68.064
X-133.133 Y-67.987
X-133.003 Y-67.912
X-132.872 Y-67.838
X-132.741 Y-67.766
X-132.608 Y-67.695
X-132.475 Y-67.626
X-132.341 Y-67.559
X-132.206 Y-67.493
X-132.071 Y-67.429
X-131.934 Y-67.367
X-131.797 Y-67.306
X-131.659 Y-67.247
X-131.52 Y-67.19
X-131.381 Y-67.134
X-131.241 Y-67.081
X-131.1 Y-67.029
X-130.959 Y-66.979
X-130.817 Y-66.931
X-130.674 Y-66.884
X-130.531 Y-66.84
X-130.387 Y-66.798
X-130.243 Y-66.757
X-130.098 Y-66.719
X-129.952 Y-66.682
X-129.806 Y-66.648
X-129.659 Y-66.616
X-129.512 Y-66.586
X-129.365 Y-66.559
X-129.217 Y-66.534
X-129.069 Y-66.511
X-128.92 Y-66.492
X-128.771 Y-66.475
X-128.622 Y-66.461
X-128.472 Y-66.45
X-128.322 Y-66.442
X-128.172 Y-66.439
X-128.022
X-127.872 Y-66.442
X-127.723 Y-66.449
X-127.573 Y-66.46
X-127.424 Y-66.476
X-127.275 Y-66.496
X-127.191 Y-66.51
X-126.9 Y-66.588
X-126.631 Y-66.725
X-126.395 Y-66.912
X-126.202 Y-67.144
X-126.059 Y-67.41
X-125.974 Y-67.7
X-125.727 Y-69.022
G2 X-125.738 Y-69.27 I-0.628 J-0.095
X-125.963 Y-69.617 I-0.616 J0.153
G1 X-135.764 Y-77.295
G2 X-136.219 Y-77.427 I-0.392 J0.5
X-136.456 Y-77.355 I0.063 J0.632 F150
G1 X-137.003 Y-77.038 F200
X-137.378 Y-76.822
X-137.585 Y-76.717
X-137.699 Y-76.674
X-137.837 Y-76.614
X-137.97 Y-76.546
X-138.098 Y-76.467
X-138.219 Y-76.378
X-138.333 Y-76.281
X-138.441 Y-76.177
X-138.542 Y-76.066
X-138.637 Y-75.95
X-138.725 Y-75.829
X-138.807 Y-75.703
X-138.883 Y-75.574
X-138.953 Y-75.441
X-139.017 Y-75.305
X-139.075 Y-75.167
X-139.128 Y-75.026
X-139.175 Y-74.884
X-139.217 Y-74.74
X-139.254 Y-74.595
X-139.286 Y-74.448
X-139.313 Y-74.301
X-139.335 Y-74.152
X-139.352 Y-74.003
X-139.365 Y-73.854
X-139.374 Y-73.704
X-139.378 Y-73.554
X-139.379 Y-73.404
X-139.375 Y-73.254
X-139.367 Y-73.104
X-139.355 Y-72.955
X-139.34 Y-72.806
X-139.321 Y-72.657
X-139.299 Y-72.508
X-139.273 Y-72.361
X-139.244 Y-72.214
X-139.211 Y-72.067
X-139.176 Y-71.921
X-139.137 Y-71.776
X-139.095 Y-71.632
X-139.051 Y-71.489
X-139.003 Y-71.347
X-138.953 Y-71.206
X-138.9 Y-71.065
X-138.845 Y-70.926
X-138.786 Y-70.788
X-138.726 Y-70.65
X-138.663 Y-70.514
X-138.597 Y-70.379
X-138.529 Y-70.246
X-138.459 Y-70.113
X-138.387 Y-69.982
X-138.313 Y-69.851
X-138.236 Y-69.722
X-138.158 Y-69.595
X-138.077 Y-69.468
X-137.994 Y-69.343
X-137.91 Y-69.219
X-137.824 Y-69.096
X-137.736 Y-68.975
X-137.646 Y-68.855
X-137.554 Y-68.736
X-137.461 Y-68.618
X-137.366 Y-68.502
X-137.269 Y-68.387
X-137.171 Y-68.274
X-137.072 Y-68.162
X-136.97 Y-68.051
X-136.868 Y-67.942
X-136.764 Y-67.834
X-136.658 Y-67.727
X-136.552 Y-67.622
X-136.443 Y-67.518
X-136.334 Y-67.415
X-136.223 Y-67.314
X-136.111 Y-67.214
X-135.998 Y-67.116
X-135.884 Y-67.019
X-135.768 Y-66.923
X-135.651 Y-66.829
X-135.534 Y-66.736
X-135.415 Y-66.644
X-135.295 Y-66.554
X-135.174 Y-66.466
X-135.052 Y-66.378
X-134.929 Y-66.292
X-134.805 Y-66.208
X-134.68 Y-66.125
X-134.554 Y-66.044
X-134.427 Y-65.963
X-134.299 Y-65.885
X-134.171 Y-65.807
X-134.041 Y-65.732
X-133.911 Y-65.657
X-133.78 Y-65.585
X-133.648 Y-65.513
X-133.515 Y-65.443
X-133.382 Y-65.375
X-133.248 Y-65.308
X-133.113 Y-65.243
X-132.977 Y-65.179
X-132.84 Y-65.117
X-132.703 Y-65.056
X-132.565 Y-64.997
X-132.427 Y-64.939
X-132.288 Y-64.883
X-132.148 Y-64.829
X-132.007 Y-64.777
X-131.866 Y-64.726
X-131.724 Y-64.677
X-131.582 Y-64.629
X-131.439 Y-64.583
X-131.296 Y-64.54
X-131.152 Y-64.498
X-131.007 Y-64.458
X-130.862 Y-64.419
X-130.717 Y-64.383
X-130.571 Y-64.349
X-130.424 Y-64.317
X-130.277 Y-64.287
X-130.13 Y-64.259
X-129.982 Y-64.233
X-129.834 Y-64.21
X-129.685 Y-64.188
X-129.537 Y-64.169
X-129.387 Y-64.153
X-129.238 Y-64.14
X-129.088 Y-64.129
X-128.939 Y-64.121
X-128.789 Y-64.116
X-128.639 Y-64.114
X-128.489 Y-64.116
X-128.339 Y-64.121
X-128.189 Y-64.13
X-128.04 Y-64.143
X-127.891 Y-64.159
X-127.742 Y-64.18
X-127.594 Y-64.205
X-127.445 Y-64.235
X-127.161 Y-64.331
X-126.902 Y-64.482
X-126.678 Y-64.683
X-126.5 Y-64.924
X-126.374 Y-65.196
X-126.305 Y-65.489
X-126.177 Y-66.474
X-126.146 Y-66.681
G2 X-126.361 Y-67.231 I-0.631 J-0.071
G1 X-137.078 Y-76.552
G2 X-137.453 Y-76.706 I-0.417 J0.479
X-137.699 Y-76.674 I-0.041 J0.634 F150
G1 X-137.999 Y-76.56 F200
X-138.207 Y-76.483
X-139.151 Y-76.172
X-139.291 Y-76.118
X-139.429 Y-76.061
X-139.563 Y-75.992
X-139.691 Y-75.914
X-139.813 Y-75.828
X-139.93 Y-75.734
X-140.042 Y-75.633
X-140.147 Y-75.527
X-140.248 Y-75.415
X-140.342 Y-75.299
X-140.432 Y-75.178
X-140.515 Y-75.054
X-140.594 Y-74.926
X-140.667 Y-74.795
X-140.735 Y-74.662
X-140.798 Y-74.526
X-140.856 Y-74.387
X-140.91 Y-74.247
X-140.959 Y-74.105
X-141.003 Y-73.962
X-141.091 Y-73.752
X-141.211 Y-73.558
X-141.359 Y-73.385
X-141.532 Y-73.236
X-141.726 Y-73.116
X-141.936 Y-73.027
X-142.157 Y-72.971
X-142.383 Y-72.95
X-142.611 Y-72.963
X-142.834 Y-73.012
X-143.046 Y-73.094
X-143.244 Y-73.208
X-143.955 Y-73.779
X-144.482 Y-74.523
X-144.989 Y-75.28
X-145.354 Y-75.846
X-145.56 Y-76.1
X-145.818 Y-76.302
X-146.113 Y-76.443
X-146.7 Y-76.647
X-146.907 Y-76.746
X-147.063 Y-76.831
X-147.528 Y-77.096
X-148.15 Y-77.453
X-148.564 Y-77.698
X-148.771 Y-77.842
X-149.065 Y-78.073
X-149.807 Y-78.737
X-149.991 Y-78.902
X-150.429 Y-79.317
X-150.619 Y-79.523
X-151.05 Y-80.104
X-151.091 Y-80.14 Z-6.994
X-151.131 Y-80.175 Z-6.975
X-151.166 Y-80.206 Z-6.945
X-151.195 Y-80.232 Z-6.906
X-151.217 Y-80.251 Z-6.859
X-151.234 Y-80.261 Z-6.806
X-151.239 Y-80.264 Z-6.751
G0 Z5
X-138.904 Y-76.194
Z-6.365
G1 Z-7 F150
G2 X-139.151 Y-76.172 I-0.07 J0.631
G1 X-139.45 Y-76.074 F200
X-139.657 Y-76.013
X-139.864 Y-75.959
X-140.071 Y-75.923
X-140.278 Y-75.896
X-141.314 Y-75.783
X-141.521 Y-75.761
X-141.935 Y-75.725
X-142.143 Y-75.71
X-142.764 Y-75.749
X-144.007 Y-75.875
X-144.214 Y-75.905
X-144.628 Y-75.981
X-144.735 Y-76.002
X-145.043 Y-76.099
X-145.25 Y-76.165
X-145.297 Y-76.171 Z-6.995
X-145.342 Y-76.177 Z-6.982
X-145.384 Y-76.183 Z-6.959
X-145.421 Y-76.188 Z-6.93
X-145.453 Y-76.186 Z-6.891
X-145.477 Y-76.185 Z-6.848
X-145.492 Y-76.184 Z-6.8
X-145.497 Z-6.751
G0 Z5
X-130.465 Y-38.56
Z-5.73
G1 Z-6.365 F150
X-130.463 Y-38.567 Z-6.464
X-130.454 Y-38.589 Z-6.561
X-130.44 Y-38.624 Z-6.653
X-130.42 Y-38.672 Z-6.738
X-130.396 Y-38.732 Z-6.814
X-130.368 Y-38.803 Z-6.879
X-130.337 Y-38.882 Z-6.931
X-130.303 Y-38.967 Z-6.969
X-130.267 Y-39.057 Z-6.992
X-130.23 Y-39.149 Z-7
G2 X-129.291 Y-42.513 I-15.055 J-6.014
G1 X-129.112 Y-43.896 F200
X-129.081 Y-44.278
X-129.07 Y-44.427
X-129.065 Y-44.577
X-129.064 Y-44.727
X-129.068 Y-44.877
X-129.076 Y-45.027
X-129.088 Y-45.176
X-129.104 Y-45.326
X-129.122 Y-45.474
X-129.144 Y-45.623
X-129.169 Y-45.771
X-129.197 Y-45.918
X-129.228 Y-46.065
X-129.26 Y-46.211
X-129.295 Y-46.357
X-129.333 Y-46.503
X-129.372 Y-46.647
X-129.413 Y-46.792
X-129.456 Y-46.935
X-129.501 Y-47.079
X-129.547 Y-47.221
X-129.595 Y-47.363
X-129.644 Y-47.505
X-129.694 Y-47.646
X-129.746 Y-47.787
X-129.799 Y-47.927
X-129.853 Y-48.067
X-129.909 Y-48.207
X-129.968 Y-48.353
X-130.032 Y-48.508
X-130.101 Y-48.671
X-130.175 Y-48.843
X-130.255 Y-49.027
X-130.343 Y-49.222
X-130.439 Y-49.432
X-130.545 Y-49.659
X-130.661 Y-49.905
X-130.791 Y-50.173
X-130.937 Y-50.47
X-131.103 Y-50.801
X-131.295 Y-51.175
X-131.52 Y-51.607
X-131.79 Y-52.116
X-132.125 Y-52.739
X-132.564 Y-53.538
X-133.009 Y-54.334
X-133.457 Y-55.128
X-133.909 Y-55.92
X-134.362 Y-56.711
X-134.818 Y-57.501
X-135.731 Y-59.08
X-136.989 Y-61.249
X-137.906 Y-62.825
X-137.943 Y-62.866 Z-6.994
X-137.978 Y-62.905 Z-6.975
X-138.01 Y-62.939 Z-6.945
X-138.036 Y-62.968 Z-6.906
X-138.056 Y-62.99 Z-6.859
X-138.071 Y-63.001 Z-6.806
X-138.076 Y-63.005 Z-6.751
G0 Z5
X-129.937 Y-43.908
Z-5.73
G1 Z-6.365 F150
X-129.929 Y-43.906 Z-6.464
X-129.906 Y-43.9 Z-6.561
X-129.869 Y-43.891 Z-6.653
X-129.819 Y-43.879 Z-6.738
X-129.756 Y-43.864 Z-6.814
X-129.682 Y-43.846 Z-6.879
X-129.6 Y-43.826 Z-6.931
X-129.51 Y-43.804 Z-6.969
X-129.416 Y-43.782 Z-6.992
X-129.32 Y-43.758 Z-7
G2 X-129.112 Y-43.896 I0.04 J-0.165
G1 X-128.573 Y-48.039 F200
X-128.544 Y-48.402
X-128.533 Y-48.552
X-128.527 Y-48.702
X-128.525 Y-48.852
X-128.527 Y-49.002
X-128.532 Y-49.152
X-128.541 Y-49.301
X-128.553 Y-49.451
X-128.569 Y-49.6
X-128.587 Y-49.749
X-128.608 Y-49.897
X-128.632 Y-50.046
X-128.658 Y-50.193
X-128.686 Y-50.341
X-128.717 Y-50.487
X-128.75 Y-50.634
X-128.784 Y-50.78
X-128.821 Y-50.925
X-128.86 Y-51.07
X-128.9 Y-51.215
X-128.942 Y-51.359
X-128.985 Y-51.502
X-129.03 Y-51.645
X-129.077 Y-51.788
X-129.124 Y-51.93
X-129.173 Y-52.072
X-129.223 Y-52.213
X-129.274 Y-52.354
X-129.327 Y-52.495
X-129.382 Y-52.64
X-129.442 Y-52.793
X-129.504 Y-52.948
X-129.57 Y-53.112
X-129.642 Y-53.285
X-129.72 Y-53.469
X-129.805 Y-53.665
X-129.894 Y-53.868
X-129.992 Y-54.086
X-130.101 Y-54.322
X-130.219 Y-54.575
X-130.349 Y-54.847
X-130.495 Y-55.148
X-130.659 Y-55.478
X-130.844 Y-55.846
X-131.059 Y-56.265
X-131.311 Y-56.747
X-131.614 Y-57.317
X-131.995 Y-58.019
X-132.546 Y-59.017
X-132.658 Y-59.216
X-132.737 Y-59.429
X-132.783 Y-59.653
X-132.794 Y-59.88
X-132.771 Y-60.107
X-132.712 Y-60.327
X-132.621 Y-60.536
X-132.498 Y-60.728
X-132.348 Y-60.9
X-132.173 Y-61.046
X-131.978 Y-61.163
X-131.767 Y-61.25
X-130.88 Y-61.461
X-130.707 Y-61.457
X-130.549 Y-61.455
X-130.399 Y-61.453
X-130.249
X-130.099 Y-61.454
X-129.949 Y-61.457
X-129.799 Y-61.46
X-129.649 Y-61.465
X-129.499 Y-61.473
X-129.35 Y-61.482
X-129.2 Y-61.493
X-129.051 Y-61.506
X-128.901 Y-61.522
X-128.752 Y-61.54
X-128.604 Y-61.561
X-128.456 Y-61.585
X-128.308 Y-61.612
X-128.161 Y-61.642
X-128.015 Y-61.675
X-127.87 Y-61.711
X-127.725 Y-61.752
X-127.664 Y-61.77
X-127.404 Y-61.878
X-127.168 Y-62.034
X-126.967 Y-62.231
X-126.806 Y-62.463
X-126.692 Y-62.721
X-126.629 Y-62.996
X-126.425 Y-64.568
X-126.422 Y-64.627 Z-6.993
X-126.43 Y-64.678 Z-6.974
X-126.437 Y-64.724 Z-6.944
X-126.442 Y-64.762 Z-6.904
X-126.447 Y-64.79 Z-6.857
X-126.449 Y-64.808 Z-6.805
X-126.45 Y-64.814 Z-6.751
G0 Z5
X-129.394 Y-47.842
Z-5.73
G1 Z-6.365 F150
X-129.386 Y-47.843 Z-6.464
X-129.363 Y-47.844 Z-6.561
X-129.325 Y-47.846 Z-6.653
X-129.273 Y-47.848 Z-6.738
X-129.208 Y-47.851 Z-6.814
X-129.132 Y-47.855 Z-6.879
X-129.047 Y-47.859 Z-6.931
X-128.955 Y-47.863 Z-6.969
X-128.859 Y-47.868 Z-6.992
X-128.759 Y-47.873 Z-7
G2 X-128.573 Y-48.039 I-0.01 J-0.198
G1 X-128.008 Y-52.388 F200
X-127.974 Y-52.808
X-127.964 Y-52.958
X-127.957 Y-53.108
X-127.955 Y-53.258
X-127.956 Y-53.408
X-127.961 Y-53.557
X-127.97 Y-53.707
X-127.981 Y-53.857
X-127.996 Y-54.006
X-128.014 Y-54.155
X-128.034 Y-54.304
X-128.057 Y-54.452
X-128.082 Y-54.6
X-128.11 Y-54.747
X-128.14 Y-54.894
X-128.172 Y-55.041
X-128.206 Y-55.187
X-128.26 Y-55.408
X-128.28 Y-55.635
X-128.265 Y-55.863
X-128.165 Y-56.308
X-127.734 Y-57.111
X-127.574 Y-57.316
X-127.432 Y-57.537
X-127.331 Y-57.779
X-127.274 Y-58.036
G2 X-128.536 Y-58.177 I-0.632 J-0.06
G1 X-129.264 Y-52.574
G2 X-128.095 Y-52.157 I0.63 J0.082
X-128.008 Y-52.388 I-0.539 J-0.336 F150
G1 X-127.401 Y-57.059 F200
G2 X-127.43 Y-57.319 I-0.632 J-0.06
G3 X-127.319 Y-57.922 I0.603 J-0.2
G2 X-127.276 Y-58.016 I-0.153 J-0.126
G1 X-126.755 Y-62.031
X-126.752 Y-62.09 Z-6.993
X-126.76 Y-62.141 Z-6.974
X-126.766 Y-62.187 Z-6.944
X-126.772 Y-62.225 Z-6.904
X-126.776 Y-62.253 Z-6.857
X-126.779 Y-62.271 Z-6.805
X-126.78 Y-62.277 Z-6.751
G0 Z5
X-57.959 Y-57.319
Z-6.365
G1 Z-7 F150
G2 X-58.077 Y-57.118 I0.079 J0.182
G1 X-57.418 Y-52.043 F200
X-57.399 Y-51.991 Z-6.994
X-57.382 Y-51.942 Z-6.975
X-57.366 Y-51.897 Z-6.945
X-57.353 Y-51.861 Z-6.906
X-57.343 Y-51.833 Z-6.859
X-57.333 Y-51.817 Z-6.806
X-57.33 Y-51.811 Z-6.751
G0 Z5
Z10
X-45.523 Y-106.853
Z5
Z-5.73
G1 Z-6.365 F150
X-45.517 Y-106.858 Z-6.464
X-45.5 Y-106.874 Z-6.561
X-45.472 Y-106.9 Z-6.653
X-45.434 Y-106.935 Z-6.738
X-45.386 Y-106.979 Z-6.814
X-45.33 Y-107.03 Z-6.879
X-45.268 Y-107.088 Z-6.931
X-45.2 Y-107.15 Z-6.969
X-45.129 Y-107.216 Z-6.992
X-45.056 Y-107.284 Z-7
G2 X-42.761 Y-109.916 I-11.002 J-11.907
G1 X-42.71 Y-109.997 F200
X-42.568 Y-110.204
X-41.658 Y-111.447
X-41.481 Y-111.642
X-41.053 Y-112.069
X-40.824 Y-112.276
X-40.653 Y-112.429
X-40.53 Y-112.55
X-40.339 Y-112.772
X-40.129 Y-113.06
X-39.9 Y-113.432
X-39.673 Y-113.879
X-39.456 Y-114.408
X-39.228 Y-115.119
X-39.021 Y-116.007
X-38.877 Y-116.907
X-38.777 Y-117.814
X-38.707 Y-118.723
X-38.657 Y-119.633
X-38.622 Y-120.544
X-38.598 Y-121.456
X-38.58 Y-122.368
X-38.568 Y-123.279
X-38.559 Y-124.191
X-38.553 Y-125.103
X-38.549 Y-126.015
X-38.544 Y-127.838
X-38.54 Y-130.574
X-38.539 Y-136.956
X-38.538 Y-162.487
Y-168.365
X-38.574 Y-168.687
X-38.679 Y-168.994
X-38.848 Y-169.271
X-38.998 Y-169.465
X-39.203 Y-169.803
X-39.41 Y-170.148
X-39.733 Y-170.708
X-39.85 Y-170.915
X-40.079 Y-171.33
X-40.17 Y-171.537
X-40.319 Y-171.951
X-40.391 Y-172.159
X-40.728 Y-173.195
X-40.794 Y-173.402
X-40.86 Y-173.661
X-40.889 Y-173.816
X-40.92 Y-174.023
X-40.981 Y-174.603
G2 X-41.063 Y-174.837 I-0.629 J0.088
G1 X-41.113 Y-174.923 Z-6.992
X-41.162 Y-175.006 Z-6.969
X-41.209 Y-175.085 Z-6.931
X-41.252 Y-175.159 Z-6.879
X-41.29 Y-175.224 Z-6.814
X-41.323 Y-175.28 Z-6.738
X-41.35 Y-175.325 Z-6.653
X-41.369 Y-175.357 Z-6.561
X-41.381 Y-175.377 Z-6.464
X-41.385 Y-175.384 Z-6.365
G0 Z5
X-41.402 Y-112.817
Z-5.73
G1 Z-6.365 F150
X-41.396 Y-112.812 Z-6.464
X-41.377 Y-112.797 Z-6.561
X-41.347 Y-112.774 Z-6.653
X-41.306 Y-112.742 Z-6.738
X-41.255 Y-112.702 Z-6.814
X-41.196 Y-112.655 Z-6.879
X-41.129 Y-112.603 Z-6.931
X-41.056 Y-112.546 Z-6.969
X-40.98 Y-112.486 Z-6.992
X-40.902 Y-112.425 Z-7
G2 X-40.653 Y-112.429 I0.122 J-0.156
G1 X-40.36 Y-112.69 F200
X-40.238 Y-112.797
X-39.824 Y-113.138
X-39.617 Y-113.307
X-39.41 Y-113.433
X-38.995 Y-113.671
X-38.818 Y-113.785
X-38.621 Y-113.934
X-38.421 Y-114.114
X-38.196 Y-114.351
X-37.968 Y-114.633
X-37.724 Y-114.99
X-37.475 Y-115.427
X-37.214 Y-115.984
X-36.947 Y-116.697
X-36.697 Y-117.574
X-36.513 Y-118.467
X-36.378 Y-119.369
X-36.277 Y-120.275
X-36.203 Y-121.184
X-36.149 Y-122.094
X-36.109 Y-123.005
X-36.079 Y-123.917
X-36.058 Y-124.828
X-36.042 Y-125.74
X-36.03 Y-126.652
X-36.022 Y-127.563
X-36.015 Y-128.475
X-36.011 Y-129.387
X-36.005 Y-131.21
X-36.001 Y-133.946
X-35.999 Y-139.417
X-35.998 Y-163.124
Y-165.859
X-35.999 Y-165.915
X-36.029 Y-166.188
X-36.108 Y-166.45
X-36.235 Y-166.694
X-36.404 Y-166.91
X-36.61 Y-167.091
X-37.131 Y-167.471
X-37.295 Y-167.6
X-37.338 Y-167.638
X-37.525 Y-167.807
X-37.753 Y-168.051
X-37.91 Y-168.222
X-38.231 Y-168.578
G2 X-38.434 Y-168.719 I-0.457 J0.441
G1 X-38.525 Y-168.759 Z-6.992
X-38.614 Y-168.798 Z-6.969
X-38.699 Y-168.834 Z-6.931
X-38.776 Y-168.868 Z-6.879
X-38.846 Y-168.899 Z-6.814
X-38.905 Y-168.924 Z-6.738
X-38.953 Y-168.945 Z-6.653
X-38.988 Y-168.96 Z-6.561
X-39.009 Y-168.97 Z-6.464
X-39.016 Y-168.973 Z-6.365
G0 Z5
X-39.648 Y-114.206
Z-5.73
G1 Z-6.365 F150
X-39.643 Y-114.2 Z-6.464
X-39.628 Y-114.182 Z-6.561
X-39.604 Y-114.153 Z-6.653
X-39.57 Y-114.113 Z-6.738
X-39.529 Y-114.063 Z-6.814
X-39.48 Y-114.005 Z-6.879
X-39.425 Y-113.94 Z-6.931
X-39.366 Y-113.869 Z-6.969
X-39.304 Y-113.795 Z-6.992
X-39.24 Y-113.719 Z-7
G2 X-38.995 Y-113.671 I0.152 J-0.127
G1 X-38.374 Y-114.027 F200
X-38.165 Y-114.141
X-37.753 Y-114.36
X-37.546 Y-114.446
X-37.338 Y-114.518
X-37.091 Y-114.619
X-36.894 Y-114.717
X-36.697 Y-114.837
X-36.471 Y-115
X-36.229 Y-115.206
X-35.987 Y-115.449
X-35.718 Y-115.766
X-35.454 Y-116.132
X-35.17 Y-116.603
X-34.883 Y-117.178
X-34.591 Y-117.904
X-34.32 Y-118.774
X-34.112 Y-119.662
X-33.954 Y-120.56
X-33.834 Y-121.464
X-33.742 Y-122.371
X-33.673 Y-123.281
X-33.62 Y-124.191
X-33.58 Y-125.102
X-33.55 Y-126.013
X-33.527 Y-126.925
X-33.51 Y-127.836
X-33.497 Y-128.748
X-33.487 Y-129.66
X-33.48 Y-130.572
X-33.474 Y-131.483
X-33.47 Y-132.395
X-33.465 Y-134.219
X-33.461 Y-136.954
X-33.459 Y-142.425
X-33.458 Y-163.397
X-33.472 Y-164.309
X-33.493 Y-164.558
X-33.553 Y-164.869
X-33.677 Y-165.159
X-33.86 Y-165.417
X-34.093 Y-165.63
X-34.366 Y-165.788
X-34.853 Y-166.005
X-35.267 Y-166.193
X-35.474 Y-166.297
X-35.571 Y-166.357
X-35.785 Y-166.505
G2 X-36.016 Y-166.596 I-0.343 J0.534
G1 X-36.114 Y-166.613 Z-6.992
X-36.209 Y-166.63 Z-6.969
X-36.3 Y-166.647 Z-6.931
X-36.383 Y-166.662 Z-6.879
X-36.458 Y-166.675 Z-6.814
X-36.521 Y-166.687 Z-6.738
X-36.573 Y-166.696 Z-6.653
X-36.61 Y-166.703 Z-6.561
X-36.633 Y-166.707 Z-6.464
X-36.641 Y-166.708 Z-6.365
G0 Z5
X-37.881 Y-115.164
Z-5.73
G1 Z-6.365 F150
X-37.877 Y-115.158 Z-6.464
X-37.866 Y-115.137 Z-6.561
X-37.847 Y-115.104 Z-6.653
X-37.822 Y-115.059 Z-6.738
X-37.79 Y-115.002 Z-6.814
X-37.753 Y-114.936 Z-6.879
X-37.711 Y-114.862 Z-6.931
X-37.666 Y-114.782 Z-6.969
X-37.619 Y-114.697 Z-6.992
X-37.57 Y-114.611 Z-7
G2 X-37.338 Y-114.518 I0.173 J-0.097
G1 X-37.131 Y-114.59 F200
X-36.924 Y-114.66
X-36.303 Y-114.859
X-35.889 Y-114.991
X-35.681 Y-115.054
X-35.474 Y-115.091
X-35.328 Y-115.126
X-35.131 Y-115.191
X-34.931 Y-115.275
X-34.707 Y-115.391
X-34.456 Y-115.548
X-34.211 Y-115.73
X-33.932 Y-115.975
X-33.651 Y-116.264
X-33.354 Y-116.623
X-33.052 Y-117.056
X-32.733 Y-117.6
X-32.417 Y-118.254
X-32.095 Y-119.088
X-31.835 Y-119.962
X-31.631 Y-120.85
X-31.472 Y-121.748
X-31.347 Y-122.651
X-31.25 Y-123.558
X-31.174 Y-124.467
X-31.116 Y-125.377
X-31.07 Y-126.287
X-31.035 Y-127.198
X-31.007 Y-128.11
X-30.986 Y-129.021
X-30.97 Y-129.933
X-30.958 Y-130.845
X-30.948 Y-131.757
X-30.941 Y-132.668
X-30.936 Y-133.58
X-30.932 Y-134.492
X-30.926 Y-136.316
X-30.922 Y-139.051
X-30.919 Y-143.61
X-30.918 Y-160.935
X-30.921 Y-161.846
X-30.938 Y-162.758
X-30.994 Y-163.458
X-31.08 Y-163.988
X-31.198 Y-164.471
X-31.292 Y-164.664
X-31.432 Y-164.826
X-31.609 Y-164.947
X-31.811 Y-165.019
X-32.782 Y-165.225
X-32.989 Y-165.273
X-33.158 Y-165.321
G2 X-33.405 Y-165.332 I-0.152 J0.616
G1 X-33.503 Y-165.317 Z-6.992
X-33.599 Y-165.303 Z-6.969
X-33.69 Y-165.289 Z-6.931
X-33.774 Y-165.276 Z-6.879
X-33.849 Y-165.265 Z-6.814
X-33.913 Y-165.255 Z-6.738
X-33.965 Y-165.247 Z-6.653
X-34.002 Y-165.241 Z-6.561
X-34.025 Y-165.238 Z-6.464
X-34.033 Y-165.237 Z-6.365
G0 Z5
X-35.912 Y-115.813
Z-5.73
G1 Z-6.365 F150
X-35.909 Y-115.806 Z-6.464
X-35.901 Y-115.784 Z-6.561
X-35.887 Y-115.748 Z-6.653
X-35.869 Y-115.699 Z-6.738
X-35.846 Y-115.639 Z-6.814
X-35.82 Y-115.568 Z-6.879
X-35.79 Y-115.488 Z-6.931
X-35.758 Y-115.402 Z-6.969
X-35.724 Y-115.311 Z-6.992
X-35.689 Y-115.218 Z-7
G2 X-35.474 Y-115.091 I0.186 J-0.07
G1 X-35.267 Y-115.129 F200
X-35.06 Y-115.166
X-33.817 Y-115.292
X-33.703 Y-115.301
X-33.554 Y-115.32
X-33.367 Y-115.36
X-33.148 Y-115.425
X-32.916 Y-115.514
X-32.668 Y-115.634
X-32.39 Y-115.797
X-32.116 Y-115.988
X-31.802 Y-116.248
X-31.496 Y-116.544
X-31.162 Y-116.925
X-30.834 Y-117.366
X-30.485 Y-117.924
X-30.133 Y-118.601
X-29.782 Y-119.435
X-29.497 Y-120.301
X-29.268 Y-121.184
X-29.084 Y-122.077
X-28.937 Y-122.977
X-28.819 Y-123.881
X-28.726 Y-124.788
X-28.651 Y-125.697
X-28.592 Y-126.607
X-28.546 Y-127.517
X-28.509 Y-128.429
X-28.48 Y-129.34
X-28.458 Y-130.251
X-28.44 Y-131.163
X-28.426 Y-132.075
X-28.415 Y-132.987
X-28.407 Y-133.898
X-28.4 Y-134.81
X-28.395 Y-135.722
X-28.388 Y-137.546
X-28.383 Y-140.281
X-28.38 Y-143.928
X-28.379 Y-153.958
X-28.378 Y-158.517
X-28.379 Y-159.429
X-28.383 Y-160.341
X-28.401 Y-161.252
X-28.449 Y-162.163
X-28.532 Y-162.959
X-28.634 Y-163.505
X-28.754 Y-163.951
X-28.877 Y-164.206
X-29.048 Y-164.431
X-29.262 Y-164.616
X-29.509 Y-164.755
X-29.779 Y-164.84
X-30.06 Y-164.869
X-30.296
G2 X-30.537 Y-164.812 I0.022 J0.635
G1 X-30.628 Y-164.771 Z-6.992
X-30.716 Y-164.731 Z-6.969
X-30.799 Y-164.693 Z-6.931
X-30.877 Y-164.657 Z-6.879
X-30.946 Y-164.626 Z-6.814
X-31.005 Y-164.599 Z-6.738
X-31.052 Y-164.578 Z-6.653
X-31.087 Y-164.562 Z-6.561
X-31.108 Y-164.552 Z-6.464
X-31.115 Y-164.549 Z-6.365
G0 Z5
X-34.064 Y-116.064
Z-5.73
G1 Z-6.365 F150
X-34.062 Y-116.056 Z-6.464
X-34.056 Y-116.034 Z-6.561
X-34.047 Y-115.997 Z-6.653
X-34.034 Y-115.946 Z-6.738
X-34.017 Y-115.884 Z-6.814
X-33.998 Y-115.81 Z-6.879
X-33.977 Y-115.728 Z-6.931
X-33.953 Y-115.639 Z-6.969
X-33.929 Y-115.545 Z-6.992
X-33.904 Y-115.449 Z-7
G2 X-33.703 Y-115.301 I0.192 J-0.05
G1 X-33.61 Y-115.308 F200
X-33.196 Y-115.334
X-32.989 Y-115.33
X-32.574 Y-115.294
X-32.367 Y-115.274
X-32.16 Y-115.252
X-32.01 Y-115.243
X-31.823 Y-115.249
X-31.628 Y-115.271
X-31.398 Y-115.317
X-31.165 Y-115.382
X-30.897 Y-115.481
X-30.62 Y-115.61
X-30.318 Y-115.781
X-29.997 Y-115.998
X-29.667 Y-116.264
X-29.307 Y-116.603
X-28.953 Y-116.996
X-28.581 Y-117.481
X-28.195 Y-118.078
X-27.815 Y-118.785
X-27.449 Y-119.621
X-27.148 Y-120.481
X-26.901 Y-121.359
X-26.698 Y-122.248
X-26.532 Y-123.145
X-26.396 Y-124.046
X-26.286 Y-124.951
X-26.197 Y-125.859
X-26.125 Y-126.768
X-26.066 Y-127.678
X-26.019 Y-128.588
X-25.982 Y-129.499
X-25.952 Y-130.411
X-25.928 Y-131.322
X-25.909 Y-132.234
X-25.894 Y-133.145
X-25.882 Y-134.057
X-25.872 Y-134.969
X-25.865 Y-135.881
X-25.859 Y-136.792
X-25.851 Y-138.616
X-25.846 Y-140.44
X-25.842 Y-143.175
X-25.839 Y-147.734
Y-156.852
X-25.84 Y-157.764
X-25.844 Y-158.676
X-25.856 Y-159.588
X-25.883 Y-160.499
X-25.936 Y-161.409
X-26.032 Y-162.316
X-26.149 Y-162.951
X-26.287 Y-163.462
X-26.434 Y-163.876
X-26.556 Y-164.146
X-26.727 Y-164.433
X-26.958 Y-164.675
X-27.237 Y-164.859
X-27.55 Y-164.975
X-27.882 Y-165.019
X-28.214 Y-164.987
X-28.432 Y-164.941
X-28.639 Y-164.907
X-28.846 Y-164.886
X-29.053 Y-164.872
X-29.116 Y-164.871
G2 X-29.357 Y-164.813 I0.025 J0.635
G1 X-29.447 Y-164.772 Z-6.992
X-29.535 Y-164.731 Z-6.969
X-29.619 Y-164.693 Z-6.931
X-29.696 Y-164.657 Z-6.879
X-29.765 Y-164.625 Z-6.814
X-29.823 Y-164.598 Z-6.738
X-29.871 Y-164.577 Z-6.653
X-29.905 Y-164.561 Z-6.561
X-29.926 Y-164.551 Z-6.464
X-29.933 Y-164.548 Z-6.365
G0 Z5
X-32.374 Y-116.068
Z-5.73
G1 Z-6.365 F150
X-32.373 Y-116.06 Z-6.464
X-32.372 Y-116.037 Z-6.561
X-32.369 Y-115.999 Z-6.653
X-32.366 Y-115.947 Z-6.738
X-32.361 Y-115.882 Z-6.814
X-32.356 Y-115.807 Z-6.879
X-32.35 Y-115.722 Z-6.931
X-32.344 Y-115.63 Z-6.969
X-32.337 Y-115.533 Z-6.992
X-32.33 Y-115.434 Z-7
G2 X-32.16 Y-115.252 I0.198 J-0.014
G1 X-31.125 Y-115.139 F200
X-30.917 Y-115.104
X-30.71 Y-115.057
X-30.596 Y-115.026
X-30.45 Y-114.993
X-30.303 Y-114.965
X-30.153 Y-114.948
X-30.004 Y-114.941
X-29.854 Y-114.944
X-29.704 Y-114.955
X-29.555 Y-114.974
X-29.408 Y-115
X-29.261 Y-115.034
X-29.117 Y-115.073
X-28.974 Y-115.119
X-28.833 Y-115.17
X-28.694 Y-115.227
X-28.557 Y-115.289
X-28.423 Y-115.355
X-28.291 Y-115.426
X-28.161 Y-115.501
X-28.033 Y-115.58
X-27.908 Y-115.663
X-27.785 Y-115.749
X-27.665 Y-115.838
X-27.546 Y-115.93
X-27.431 Y-116.026
X-27.317 Y-116.124
X-27.207 Y-116.225
X-27.098 Y-116.329
X-26.992 Y-116.434
X-26.887 Y-116.542
X-26.786 Y-116.652
X-26.686 Y-116.765
X-26.589 Y-116.879
X-26.494 Y-116.995
X-26.401 Y-117.113
X-26.311 Y-117.232
X-26.222 Y-117.353
X-26.135 Y-117.476
X-26.051 Y-117.6
X-25.968 Y-117.725
X-25.888 Y-117.852
X-25.81 Y-117.98
X-25.733 Y-118.109
X-25.658 Y-118.239
X-25.585 Y-118.37
X-25.514 Y-118.502
X-25.445 Y-118.635
X-25.378 Y-118.769
X-25.312 Y-118.904
X-25.247 Y-119.039
X-25.185 Y-119.176
X-25.124 Y-119.313
X-25.065 Y-119.45
X-25.007 Y-119.589
X-24.951 Y-119.728
X-24.896 Y-119.868
X-24.842 Y-120.008
X-24.79 Y-120.148
X-24.74 Y-120.29
X-24.691 Y-120.431
X-24.643 Y-120.573
X-24.596 Y-120.716
X-24.551 Y-120.859
X-24.506 Y-121.002
X-24.463 Y-121.146
X-24.422 Y-121.29
X-24.381 Y-121.434
X-24.34 Y-121.584
X-24.302 Y-121.73
X-24.264 Y-121.875
X-24.227 Y-122.024
X-24.189 Y-122.182
X-24.15 Y-122.349
X-24.109 Y-122.527
X-24.072 Y-122.698
X-24.036 Y-122.87
X-23.999 Y-123.053
X-23.96 Y-123.249
X-23.921 Y-123.459
X-23.884 Y-123.661
X-23.848 Y-123.87
X-23.811 Y-124.095
X-23.773 Y-124.339
X-23.736 Y-124.582
X-23.7 Y-124.832
X-23.664 Y-125.104
X-23.626 Y-125.399
X-23.591 Y-125.688
X-23.555 Y-126.008
X-23.518 Y-126.355
X-23.484 Y-126.707
X-23.448 Y-127.105
X-23.413 Y-127.52
X-23.378 Y-127.983
X-23.344 Y-128.482
X-23.309 Y-129.053
X-23.276 Y-129.672
X-23.242 Y-130.394
X-23.209 Y-131.243
X-23.18 Y-132.155
X-23.157 Y-133.066
X-23.139 Y-133.978
X-23.124 Y-134.889
X-23.113 Y-135.801
X-23.104 Y-136.713
X-23.096 Y-137.625
X-23.091 Y-138.536
X-23.083 Y-140.36
X-23.078 Y-142.184
X-23.074 Y-144.919
X-23.071 Y-149.478
X-23.07 Y-154.949
X-23.071 Y-155.861
X-23.073 Y-156.773
X-23.08 Y-157.685
X-23.094 Y-158.596
X-23.121 Y-159.508
X-23.168 Y-160.418
X-23.182 Y-160.578
X-23.196 Y-160.727
X-23.211 Y-160.876
X-23.228 Y-161.025
X-23.246 Y-161.176
X-23.265 Y-161.325
X-23.285 Y-161.473
X-23.307 Y-161.622
X-23.33 Y-161.77
X-23.354 Y-161.918
X-23.38 Y-162.066
X-23.408 Y-162.213
X-23.438 Y-162.36
X-23.469 Y-162.507
X-23.502 Y-162.653
X-23.538 Y-162.799
X-23.575 Y-162.944
X-23.615 Y-163.089
X-23.657 Y-163.233
X-23.701 Y-163.376
X-23.749 Y-163.518
X-23.799 Y-163.659
X-23.853 Y-163.8
X-23.909 Y-163.938
X-23.969 Y-164.076
X-24.032 Y-164.212
X-24.098 Y-164.347
X-24.168 Y-164.48
X-24.241 Y-164.61
X-24.318 Y-164.739
X-24.399 Y-164.866
X-24.442 Y-164.93
X-24.662 Y-165.186
X-24.934 Y-165.386
X-25.244 Y-165.52
X-25.576 Y-165.579
X-25.914 Y-165.562
X-26.238 Y-165.468
X-26.361 Y-165.418
X-26.568 Y-165.359
X-26.982 Y-165.25
X-27.189 Y-165.204
X-27.303 Y-165.18
G2 X-27.527 Y-165.074 I0.153 J0.616
G1 X-27.607 Y-165.015 Z-6.992
X-27.685 Y-164.958 Z-6.969
X-27.759 Y-164.903 Z-6.931
X-27.827 Y-164.852 Z-6.879
X-27.888 Y-164.807 Z-6.814
X-27.94 Y-164.769 Z-6.738
X-27.982 Y-164.738 Z-6.653
X-28.013 Y-164.715 Z-6.561
X-28.031 Y-164.701 Z-6.464
X-28.038 Y-164.697 Z-6.365
G0 Z5
X-30.677 Y-115.866
Z-5.73
G1 Z-6.365 F150
X-30.678 Y-115.858 Z-6.464
X-30.68 Y-115.835 Z-6.561
X-30.683 Y-115.797 Z-6.653
X-30.688 Y-115.745 Z-6.738
X-30.694 Y-115.68 Z-6.814
X-30.701 Y-115.605 Z-6.879
X-30.708 Y-115.52 Z-6.931
X-30.717 Y-115.429 Z-6.969
X-30.726 Y-115.332 Z-6.992
X-30.735 Y-115.233 Z-7
G2 X-30.596 Y-115.026 I0.198 J0.018
G1 X-30.503 Y-115 F200
X-29.15 Y-114.555
X-29.053 Y-114.518
X-28.875 Y-114.461
X-28.732 Y-114.416
X-28.586 Y-114.381
X-28.438 Y-114.357
X-28.289 Y-114.341
X-28.139 Y-114.334
X-27.989 Y-114.336
X-27.839 Y-114.345
X-27.69 Y-114.36
X-27.542 Y-114.383
X-27.395 Y-114.412
X-27.249 Y-114.446
X-27.104 Y-114.486
X-26.961 Y-114.532
X-26.82 Y-114.583
X-26.681 Y-114.638
X-26.543 Y-114.697
X-26.407 Y-114.761
X-26.274 Y-114.829
X-26.142 Y-114.901
X-26.013 Y-114.977
X-25.885 Y-115.056
X-25.76 Y-115.138
X-25.636 Y-115.224
X-25.515 Y-115.312
X-25.396 Y-115.403
X-25.279 Y-115.497
X-25.164 Y-115.594
X-25.051 Y-115.693
X-24.941 Y-115.794
X-24.832 Y-115.897
X-24.726 Y-116.003
X-24.621 Y-116.111
X-24.519 Y-116.22
X-24.419 Y-116.332
X-24.32 Y-116.445
X-24.247 Y-116.532
G2 X-25.007 Y-117.503 I-0.5 J-0.391
G1 X-29.067 Y-115.683
G2 X-29.259 Y-114.657 I0.26 J0.579
X-29.053 Y-114.518 I0.451 J-0.447 F150
G1 X-28.604 Y-114.348 F200
X-28.432 Y-114.266
X-28.206 Y-114.141
X-28.018 Y-114.034
X-27.603 Y-113.793
X-27.47 Y-113.724
X-27.334 Y-113.661
X-27.194 Y-113.608
X-27.05 Y-113.564
X-26.904 Y-113.529
X-26.757 Y-113.503
X-26.608 Y-113.485
X-26.458 Y-113.475
X-26.308 Y-113.471
X-26.158 Y-113.475
X-26.009 Y-113.485
X-25.859 Y-113.501
X-25.711 Y-113.523
X-25.564 Y-113.55
X-25.417 Y-113.583
X-25.272 Y-113.621
X-25.128 Y-113.663
X-24.904 Y-113.705
X-24.676 Y-113.712
X-24.45 Y-113.684
X-24.231 Y-113.622
X-24.024 Y-113.527
X-23.833 Y-113.401
X-23.665 Y-113.248
X-23.522 Y-113.07
X-23.065 Y-112.281
X-22.871 Y-111.39
X-22.801 Y-110.481
X-22.819 Y-109.569
X-22.885 Y-108.837
X-22.887 Y-108.591
X-22.847 Y-108.347
X-22.768 Y-108.113
G2 X-22.62 Y-107.915 I0.573 J-0.274
G1 X-22.546 Y-107.848 Z-6.992
X-22.474 Y-107.784 Z-6.969
X-22.405 Y-107.722 Z-6.931
X-22.342 Y-107.665 Z-6.879
X-22.286 Y-107.615 Z-6.814
X-22.238 Y-107.571 Z-6.738
X-22.199 Y-107.536 Z-6.653
X-22.171 Y-107.511 Z-6.561
X-22.153 Y-107.495 Z-6.464
X-22.147 Y-107.49 Z-6.365
G0 Z5
X-27.467 Y-114.626
Z-5.73
G1 Z-6.365 F150
X-27.469 Y-114.618 Z-6.464
X-27.477 Y-114.596 Z-6.561
X-27.49 Y-114.561 Z-6.653
X-27.508 Y-114.512 Z-6.738
X-27.53 Y-114.451 Z-6.814
X-27.556 Y-114.38 Z-6.879
X-27.585 Y-114.3 Z-6.931
X-27.617 Y-114.213 Z-6.969
X-27.65 Y-114.122 Z-6.992
X-27.684 Y-114.029 Z-7
G2 X-27.603 Y-113.793 I0.186 J0.068
G1 X-26.982 Y-113.432 F200
X-26.775 Y-113.301
X-26.568 Y-113.164
X-26.153 Y-112.807
X-26.022 Y-112.69
X-25.325 Y-112.059
X-25.118 Y-111.855
X-24.723 Y-111.447
X-24.57 Y-111.24
X-23.822 Y-110.204
X-23.668 Y-109.982
X-23.538 Y-109.789
X-23.425 Y-109.582
X-23.325 Y-109.375
X-23.16 Y-109.002
G2 X-23.003 Y-108.798 I0.572 J-0.277
G3 X-22.934 Y-108.728 I-0.414 J0.481
G1 X-22.895 Y-108.663 Z-6.995
X-22.858 Y-108.598 Z-6.982
X-22.821 Y-108.535 Z-6.959
X-22.807 Y-108.456 Z-6.922
X-22.794 Y-108.383 Z-6.873
X-22.782 Y-108.317 Z-6.815
X-22.785 Y-108.271 Z-6.764
X-22.788 Y-108.231 Z-6.709
X-22.79 Y-108.204 Z-6.664
X-22.784 Y-108.173 Z-6.593
X-22.779 Y-108.15 Z-6.519
X-22.777 Y-108.136 Z-6.443
X-22.776 Y-108.132 Z-6.366
G0 Z5
X-17.85 Y-179.553
Z-5.73
G1 Z-6.365 F150
X-17.852 Y-179.546 Z-6.464
X-17.859 Y-179.524 Z-6.561
X-17.871 Y-179.488 Z-6.653
X-17.888 Y-179.438 Z-6.738
X-17.909 Y-179.377 Z-6.814
X-17.933 Y-179.305 Z-6.879
X-17.96 Y-179.224 Z-6.931
X-17.989 Y-179.137 Z-6.969
X-18.02 Y-179.045 Z-6.992
X-18.051 Y-178.951 Z-7
G2 X-18.796 Y-175.539 I15.374 J5.144
G1 X-18.801 Y-175.474 F200
X-18.819 Y-175.267
X-18.951 Y-174.023
X-18.982 Y-173.816
X-19.023 Y-173.609
X-19.076 Y-173.402
X-19.277 Y-172.78
X-19.48 Y-172.159
X-19.525 Y-172.024
X-19.732 Y-171.446
X-19.788 Y-171.33
X-19.899 Y-171.123
X-19.939 Y-171.051
X-20.195 Y-170.551
X-20.262 Y-170.416
X-20.325 Y-170.281
X-20.386 Y-170.143
X-20.443 Y-170.005
X-20.498 Y-169.865
X-20.55 Y-169.724
X-20.65 Y-169.519
X-20.78 Y-169.332
X-20.937 Y-169.167
X-21.076 Y-169.061
X-21.159 Y-169.011
X-21.283 Y-168.929
X-21.397 Y-168.835
X-21.502 Y-168.73
G2 X-21.621 Y-168.513 I0.486 J0.408
X-20.489 Y-167.967 I0.606 J0.191
G1 X-18.874 Y-170.361
G2 X-19.77 Y-171.232 I-0.526 J-0.355
X-19.939 Y-171.051 I0.37 J0.516 F150
G1 X-20.496 Y-170.087 F200
G2 X-20.571 Y-169.797 I0.561 J0.298
G1 X-20.577 Y-169.31
G3 X-21.255 Y-168.802 I-0.535 J-0.007
G2 X-21.267 Y-168.805 I-0.065 J0.235
X-21.496 Y-168.737 I-0.053 J0.238 F150
G1 X-22.011 Y-168.166 F200
X-22.425 Y-167.733
X-22.571 Y-167.6
X-22.632 Y-167.549
X-23.129 Y-167.186
X-23.7 Y-166.771
X-23.875 Y-166.649
X-24.312 Y-166.357
X-24.496 Y-166.242
X-24.911 Y-166.053
X-25.158 Y-165.942
X-25.359 Y-165.853
X-25.404 Y-165.82 Z-6.994
X-25.446 Y-165.789 Z-6.975
X-25.484 Y-165.762 Z-6.945
X-25.516 Y-165.739 Z-6.906
X-25.54 Y-165.721 Z-6.859
X-25.552 Y-165.708 Z-6.806
X-25.557 Y-165.703 Z-6.751
G0 Z5
X-23.16 Y-109.002
Z-6.365
G1 Z-7 F150
G2 X-23.003 Y-108.798 I0.572 J-0.277 F200
G3 X-22.788 Y-108.231 I-0.414 J0.481
G2 X-22.776 Y-108.132 I0.197 J0.027
G1 X-22.632 Y-107.801
X-22.603 Y-107.717
X-22.534 Y-107.51
X-22.39 Y-106.888
X-22.174 Y-105.852
X-22.131 Y-105.645
X-22.096 Y-105.438
X-22.071 Y-105.231
X-22.062 Y-105.024
X-22.06 Y-104.816
X-22.063 Y-103.78
X-22.064 Y-103.573
X-22.078 Y-103.159
X-22.087 Y-102.951
X-22.202 Y-102.33
X-22.47 Y-101.087
X-22.525 Y-100.879
X-22.588 Y-100.672
X-22.596 Y-100.612 Z-6.992
X-22.604 Y-100.556 Z-6.971
X-22.61 Y-100.507 Z-6.936
X-22.608 Y-100.472 Z-6.897
X-22.606 Y-100.446 Z-6.852
X-22.605 Y-100.43 Z-6.802
Y-100.425 Z-6.751
G0 Z5
Z10
X-72.635 Y-247.339
Z5
Z-5.73
G1 Z-6.365 F150
X-72.64 Y-247.333 Z-6.464
X-72.657 Y-247.317 Z-6.561
X-72.684 Y-247.289 Z-6.653
X-72.72 Y-247.252 Z-6.738
X-72.765 Y-247.206 Z-6.814
X-72.819 Y-247.152 Z-6.879
X-72.878 Y-247.092 Z-6.931
X-72.943 Y-247.026 Z-6.969
X-73.011 Y-246.957 Z-6.992
X-73.081 Y-246.887 Z-7
G2 X-75.251 Y-244.15 I11.544 J11.382
G1 X-75.467 Y-243.778 F200
X-75.492 Y-243.731
X-75.375 Y-243.597
X-75.22 Y-243.445
X-75.018 Y-243.278
X-74.759 Y-243.096
X-74.427 Y-242.9
X-73.998 Y-242.691
X-73.436 Y-242.472
X-72.673 Y-242.242
X-71.781 Y-242.051
X-70.879 Y-241.918
X-69.972 Y-241.825
X-69.062 Y-241.759
X-68.152 Y-241.713
X-67.241 Y-241.681
X-66.329 Y-241.658
X-65.417 Y-241.642
X-64.506 Y-241.631
X-63.594 Y-241.623
X-62.682 Y-241.617
X-61.77 Y-241.613
X-59.947 Y-241.608
X-57.211 Y-241.605
X-56.299 Y-241.604
X-55.388 Y-241.593
X-54.476 Y-241.571
X-53.565 Y-241.541
X-52.654 Y-241.503
X-51.745 Y-241.434
X-50.837 Y-241.344
X-49.931 Y-241.239
X-49.029 Y-241.112
X-48.131 Y-240.953
X-47.237 Y-240.772
X-46.347 Y-240.575
X-45.464 Y-240.348
X-44.588 Y-240.092
X-43.72 Y-239.816
X-42.856 Y-239.524
X-42.004 Y-239.198
X-41.163 Y-238.847
X-40.329 Y-238.477
X-39.504 Y-238.089
X-38.695 Y-237.668
X-37.898 Y-237.226
X-37.11 Y-236.767
X-36.335 Y-236.286
X-35.579 Y-235.777
X-34.835 Y-235.249
X-34.101 Y-234.708
X-33.388 Y-234.14
X-32.693 Y-233.55
X-32.012 Y-232.943
X-31.343 Y-232.324
X-30.699 Y-231.679
X-30.075 Y-231.014
X-29.465 Y-230.336
X-28.872 Y-229.644
X-28.305 Y-228.929
X-27.758 Y-228.199
X-27.226 Y-227.459
X-26.717 Y-226.703
X-26.234 Y-225.929
X-25.771 Y-225.144
X-25.322 Y-224.35
X-24.904 Y-223.54
X-24.511 Y-222.717
X-24.138 Y-221.885
X-23.78 Y-221.046
X-23.458 Y-220.194
X-23.159 Y-219.332
X-22.879 Y-218.464
X-22.622 Y-217.589
X-22.397 Y-216.706
X-22.196 Y-215.816
X-22.012 Y-214.923
X-21.858 Y-214.025
X-21.734 Y-213.121
X-21.632 Y-212.215
X-21.546 Y-211.307
X-21.483 Y-210.398
X-21.439 Y-209.487
X-21.408 Y-208.576
X-21.386 Y-207.664
X-21.37 Y-206.753
X-21.359 Y-205.841
X-21.351 Y-204.929
X-21.344 Y-203.628
X-21.306 Y-203.302
X-21.197 Y-202.993
X-21.023 Y-202.714
X-20.885 Y-202.54
X-20.752 Y-202.353
X-20.739 Y-202.332
X-20.618 Y-202.125
X-20.021 Y-201.089
X-19.923 Y-200.914
X-19.708 Y-200.467
X-19.617 Y-200.26
X-19.48 Y-199.846
X-19.212 Y-199.017
X-19.025 Y-198.395
X-18.989 Y-198.188
X-18.931 Y-197.773
X-18.907 Y-197.566
X-18.887 Y-197.377
G2 X-18.806 Y-197.143 I0.629 J-0.088
G1 X-18.755 Y-197.058 Z-6.992
X-18.706 Y-196.974 Z-6.969
X-18.66 Y-196.895 Z-6.931
X-18.617 Y-196.821 Z-6.879
X-18.578 Y-196.756 Z-6.814
X-18.545 Y-196.7 Z-6.738
X-18.519 Y-196.655 Z-6.653
X-18.5 Y-196.623 Z-6.561
X-18.488 Y-196.603 Z-6.464
X-18.484 Y-196.596 Z-6.365
G0 Z5
X-74.635 Y-243.641
Z-5.73
G1 Z-6.365 F150
X-74.642 Y-243.643 Z-6.464
X-74.664 Y-243.651 Z-6.561
X-74.7 Y-243.664 Z-6.653
X-74.749 Y-243.682 Z-6.738
X-74.81 Y-243.704 Z-6.814
X-74.881 Y-243.73 Z-6.879
X-74.961 Y-243.759 Z-6.931
X-75.047 Y-243.791 Z-6.969
X-75.138 Y-243.824 Z-6.992
X-75.232 Y-243.858 Z-7
G2 X-75.467 Y-243.778 I-0.068 J0.186
G1 X-75.83 Y-243.156 F200
X-75.847 Y-243.123
X-75.799 Y-242.95
X-75.735 Y-242.772
X-75.643 Y-242.573
X-75.524 Y-242.359
X-75.376 Y-242.139
X-75.178 Y-241.889
X-74.952 Y-241.648
X-74.663 Y-241.384
X-74.316 Y-241.115
X-73.893 Y-240.839
X-73.38 Y-240.56
X-72.735 Y-240.273
X-71.915 Y-239.986
X-71.034 Y-239.754
X-70.139 Y-239.579
X-69.236 Y-239.448
X-68.33 Y-239.349
X-67.421 Y-239.276
X-66.511 Y-239.221
X-65.6 Y-239.18
X-64.689 Y-239.149
X-63.777 Y-239.127
X-62.866 Y-239.11
X-61.954 Y-239.098
X-61.042 Y-239.088
X-60.13 Y-239.082
X-58.307 Y-239.072
X-57.395 Y-239.065
X-56.483 Y-239.053
X-55.572 Y-239.034
X-54.66 Y-239.007
X-53.749 Y-238.964
X-52.839 Y-238.906
X-51.931 Y-238.829
X-51.024 Y-238.732
X-50.12 Y-238.612
X-49.22 Y-238.47
X-48.323 Y-238.303
X-47.432 Y-238.11
X-46.547 Y-237.892
X-45.668 Y-237.65
X-44.796 Y-237.381
X-43.934 Y-237.085
X-43.08 Y-236.765
X-42.236 Y-236.419
X-41.404 Y-236.047
X-40.583 Y-235.651
X-39.774 Y-235.231
X-38.978 Y-234.785
X-38.197 Y-234.314
X-37.43 Y-233.822
X-36.678 Y-233.305
X-35.944 Y-232.765
X-35.225 Y-232.204
X-34.524 Y-231.621
X-33.841 Y-231.016
X-33.178 Y-230.391
X-32.532 Y-229.747
X-31.908 Y-229.083
X-31.304 Y-228.399
X-30.721 Y-227.698
X-30.16 Y-226.98
X-29.622 Y-226.243
X-29.106 Y-225.491
X-28.613 Y-224.725
X-28.144 Y-223.943
X-27.7 Y-223.146
X-27.279 Y-222.338
X-26.882 Y-221.516
X-26.513 Y-220.683
X-26.168 Y-219.839
X-25.848 Y-218.985
X-25.557 Y-218.121
X-25.292 Y-217.248
X-25.053 Y-216.368
X-24.841 Y-215.481
X-24.658 Y-214.588
X-24.5 Y-213.69
X-24.367 Y-212.788
X-24.258 Y-211.883
X-24.17 Y-210.975
X-24.1 Y-210.066
X-24.046 Y-209.156
X-24.004 Y-208.245
X-23.971 Y-207.334
X-23.939 Y-206.12
X-23.907 Y-205.85
X-23.827 Y-205.591
X-23.701 Y-205.351
X-23.533 Y-205.138
X-23.329 Y-204.96
X-22.823 Y-204.591
X-22.616 Y-204.427
X-22.409 Y-204.255
X-22.348 Y-204.198
X-22.151 Y-203.99
X-21.675 Y-203.462
G2 X-21.471 Y-203.32 I0.457 J-0.441
G1 X-21.38 Y-203.281 Z-6.992
X-21.292 Y-203.242 Z-6.969
X-21.207 Y-203.205 Z-6.931
X-21.129 Y-203.171 Z-6.879
X-21.06 Y-203.141 Z-6.814
X-21.001 Y-203.115 Z-6.738
X-20.953 Y-203.095 Z-6.653
X-20.918 Y-203.079 Z-6.561
X-20.897 Y-203.07 Z-6.464
X-20.889 Y-203.067 Z-6.365
G0 Z5
X-74.997 Y-243.019
Z-5.73
G1 Z-6.365 F150
X-75.005 Y-243.022 Z-6.464
X-75.026 Y-243.03 Z-6.561
X-75.062 Y-243.043 Z-6.653
X-75.111 Y-243.06 Z-6.738
X-75.172 Y-243.083 Z-6.814
X-75.243 Y-243.109 Z-6.879
X-75.323 Y-243.138 Z-6.931
X-75.409 Y-243.169 Z-6.969
X-75.5 Y-243.203 Z-6.992
X-75.594 Y-243.237 Z-7
G2 X-75.83 Y-243.156 I-0.068 J0.186
G1 X-76.313 Y-242.327 F200
X-76.347 Y-242.261
X-76.343 Y-242.07
X-76.322 Y-241.87
X-76.28 Y-241.644
X-76.217 Y-241.411
X-76.123 Y-241.151
X-76.003 Y-240.885
X-75.842 Y-240.594
X-75.646 Y-240.299
X-75.396 Y-239.98
X-75.101 Y-239.661
X-74.728 Y-239.318
X-74.3 Y-238.983
X-73.778 Y-238.639
X-73.141 Y-238.288
X-72.375 Y-237.943
X-71.516 Y-237.637
X-70.638 Y-237.394
X-69.746 Y-237.201
X-68.847 Y-237.049
X-67.943 Y-236.93
X-67.036 Y-236.837
X-66.127 Y-236.764
X-65.217 Y-236.708
X-64.307 Y-236.664
X-63.395 Y-236.631
X-62.484 Y-236.605
X-61.572 Y-236.585
X-60.661 Y-236.57
X-58.837 Y-236.545
X-57.926 Y-236.531
X-57.014 Y-236.513
X-56.102 Y-236.488
X-55.191 Y-236.453
X-54.281 Y-236.406
X-53.371 Y-236.342
X-52.463 Y-236.26
X-51.557 Y-236.158
X-50.654 Y-236.034
X-49.754 Y-235.886
X-48.858 Y-235.714
X-47.968 Y-235.516
X-47.085 Y-235.29
X-46.209 Y-235.038
X-45.341 Y-234.759
X-44.482 Y-234.451
X-43.634 Y-234.116
X-42.798 Y-233.754
X-41.974 Y-233.363
X-41.163 Y-232.947
X-40.366 Y-232.503
X-39.585 Y-232.033
X-38.819 Y-231.538
X-38.07 Y-231.017
X-37.34 Y-230.472
X-36.628 Y-229.902
X-35.936 Y-229.308
X-35.264 Y-228.692
X-34.613 Y-228.053
X-33.984 Y-227.393
X-33.377 Y-226.713
X-32.794 Y-226.012
X-32.234 Y-225.292
X-31.699 Y-224.554
X-31.189 Y-223.798
X-30.704 Y-223.026
X-30.246 Y-222.237
X-29.815 Y-221.434
X-29.411 Y-220.616
X-29.035 Y-219.786
X-28.687 Y-218.943
X-28.367 Y-218.089
X-28.076 Y-217.225
X-27.814 Y-216.352
X-27.581 Y-215.47
X-27.378 Y-214.581
X-27.202 Y-213.686
X-27.053 Y-212.787
X-26.927 Y-211.884
X-26.824 Y-210.978
X-26.739 Y-210.07
X-26.669 Y-209.161
X-26.613 Y-208.251
X-26.554 Y-207.522
X-26.494 Y-207.212
X-26.37 Y-206.921
X-26.187 Y-206.663
X-25.954 Y-206.449
X-25.68 Y-206.29
X-24.687 Y-205.848
X-24.48 Y-205.747
X-24.305 Y-205.648
X-24.273 Y-205.628
X-24.159 Y-205.555
G2 X-23.926 Y-205.472 I0.325 J-0.546
G1 X-23.827 Y-205.458 Z-6.992
X-23.731 Y-205.444 Z-6.969
X-23.64 Y-205.431 Z-6.931
X-23.556 Y-205.419 Z-6.879
X-23.481 Y-205.408 Z-6.814
X-23.417 Y-205.398 Z-6.738
X-23.366 Y-205.391 Z-6.653
X-23.328 Y-205.385 Z-6.561
X-23.305 Y-205.382 Z-6.464
X-23.297 Y-205.381 Z-6.365
G0 Z5
X-75.48 Y-242.19
Z-5.73
G1 Z-6.365 F150
X-75.488 Y-242.193 Z-6.464
X-75.509 Y-242.201 Z-6.561
X-75.545 Y-242.214 Z-6.653
X-75.594 Y-242.232 Z-6.738
X-75.655 Y-242.254 Z-6.814
X-75.726 Y-242.28 Z-6.879
X-75.806 Y-242.309 Z-6.931
X-75.892 Y-242.34 Z-6.969
X-75.983 Y-242.374 Z-6.992
X-76.077 Y-242.408 Z-7
G2 X-76.313 Y-242.327 I-0.068 J0.186
G1 X-76.847 Y-241.411 F200
X-76.916 Y-241.277
X-76.95 Y-241.108
X-76.974 Y-240.912
X-76.982 Y-240.702
X-76.972 Y-240.467
X-76.942 Y-240.214
X-76.885 Y-239.939
X-76.8 Y-239.643
X-76.682 Y-239.333
X-76.522 Y-238.995
X-76.326 Y-238.655
X-76.065 Y-238.277
X-75.768 Y-237.912
X-75.379 Y-237.506
X-74.944 Y-237.119
X-74.406 Y-236.714
X-73.758 Y-236.302
X-72.998 Y-235.901
X-72.16 Y-235.542
X-71.298 Y-235.245
X-70.42 Y-235
X-69.53 Y-234.799
X-68.633 Y-234.635
X-67.731 Y-234.502
X-66.826 Y-234.395
X-65.918 Y-234.308
X-65.009 Y-234.239
X-64.099 Y-234.184
X-63.188 Y-234.14
X-62.277 Y-234.105
X-61.365 Y-234.077
X-60.454 Y-234.053
X-58.631 Y-234.009
X-57.719 Y-233.984
X-56.808 Y-233.954
X-55.897 Y-233.914
X-54.987 Y-233.863
X-54.077 Y-233.797
X-53.169 Y-233.713
X-52.263 Y-233.61
X-51.36 Y-233.484
X-50.461 Y-233.335
X-49.566 Y-233.16
X-48.677 Y-232.958
X-47.794 Y-232.728
X-46.92 Y-232.47
X-46.054 Y-232.183
X-45.2 Y-231.866
X-44.356 Y-231.518
X-43.526 Y-231.141
X-42.71 Y-230.734
X-41.91 Y-230.298
X-41.125 Y-229.833
X-40.359 Y-229.34
X-39.61 Y-228.818
X-38.882 Y-228.27
X-38.174 Y-227.695
X-37.488 Y-227.094
X-36.825 Y-226.468
X-36.187 Y-225.818
X-35.572 Y-225.144
X-34.983 Y-224.448
X-34.421 Y-223.73
X-33.885 Y-222.992
X-33.377 Y-222.235
X-32.897 Y-221.46
X-32.447 Y-220.667
X-32.027 Y-219.857
X-31.638 Y-219.033
X-31.28 Y-218.194
X-30.953 Y-217.343
X-30.658 Y-216.48
X-30.394 Y-215.607
X-30.161 Y-214.726
X-29.958 Y-213.837
X-29.783 Y-212.942
X-29.633 Y-212.043
X-29.507 Y-211.14
X-29.401 Y-210.234
X-29.303 Y-209.328
X-29.184 Y-208.5
X-29.089 Y-208.08
X-28.978 Y-207.763
X-28.798 Y-207.479
X-28.558 Y-207.242
X-28.272 Y-207.066
X-27.953 Y-206.959
X-27.38 Y-206.837
X-27.173 Y-206.792
G2 X-26.925 Y-206.796 I0.113 J-0.625
G1 X-26.828 Y-206.817 Z-6.992
X-26.734 Y-206.837 Z-6.969
X-26.644 Y-206.857 Z-6.931
X-26.561 Y-206.875 Z-6.879
X-26.487 Y-206.891 Z-6.814
X-26.423 Y-206.905 Z-6.738
X-26.373 Y-206.916 Z-6.653
X-26.335 Y-206.924 Z-6.561
X-26.313 Y-206.929 Z-6.464
X-26.305 Y-206.93 Z-6.365
G0 Z5
X-76.014 Y-241.273
Z-5.73
G1 Z-6.365 F150
X-76.022 Y-241.276 Z-6.464
X-76.044 Y-241.284 Z-6.561
X-76.079 Y-241.297 Z-6.653
X-76.128 Y-241.315 Z-6.738
X-76.189 Y-241.337 Z-6.814
X-76.26 Y-241.363 Z-6.879
X-76.34 Y-241.392 Z-6.931
X-76.427 Y-241.424 Z-6.969
X-76.518 Y-241.457 Z-6.992
X-76.611 Y-241.491 Z-7
G2 X-76.847 Y-241.411 I-0.068 J0.186
G1 X-77.51 Y-240.272 F200
X-77.579 Y-240.139
X-77.638 Y-239.99
X-77.692 Y-239.811
X-77.734 Y-239.619
X-77.765 Y-239.394
X-77.777 Y-239.158
X-77.77 Y-238.887
X-77.74 Y-238.604
X-77.68 Y-238.286
X-77.589 Y-237.952
X-77.46 Y-237.596
X-77.284 Y-237.211
X-77.067 Y-236.821
X-76.777 Y-236.388
X-76.446 Y-235.969
X-76.022 Y-235.512
X-75.52 Y-235.053
X-74.941 Y-234.603
X-74.237 Y-234.141
X-73.436 Y-233.703
X-72.605 Y-233.328
X-71.752 Y-233.008
X-70.881 Y-232.737
X-69.999 Y-232.507
X-69.107 Y-232.315
X-68.21 Y-232.155
X-67.308 Y-232.021
X-66.403 Y-231.911
X-65.495 Y-231.821
X-64.586 Y-231.746
X-63.677 Y-231.686
X-62.766 Y-231.636
X-61.855 Y-231.594
X-60.944 Y-231.558
X-59.122 Y-231.493
X-58.211 Y-231.459
X-57.3 Y-231.419
X-56.389 Y-231.372
X-55.479 Y-231.312
X-54.57 Y-231.239
X-53.663 Y-231.147
X-52.758 Y-231.036
X-51.856 Y-230.902
X-50.958 Y-230.744
X-50.065 Y-230.559
X-49.179 Y-230.346
X-48.3 Y-230.103
X-47.43 Y-229.829
X-46.572 Y-229.522
X-45.725 Y-229.183
X-44.892 Y-228.812
X-44.074 Y-228.409
X-43.273 Y-227.974
X-42.49 Y-227.507
X-41.726 Y-227.009
X-40.984 Y-226.479
X-40.264 Y-225.92
X-39.568 Y-225.33
X-38.898 Y-224.712
X-38.253 Y-224.067
X-37.636 Y-223.396
X-37.047 Y-222.7
X-36.487 Y-221.981
X-35.958 Y-221.238
X-35.461 Y-220.473
X-34.997 Y-219.689
X-34.566 Y-218.885
X-34.169 Y-218.064
X-33.807 Y-217.227
X-33.478 Y-216.377
X-33.184 Y-215.514
X-32.923 Y-214.64
X-32.695 Y-213.757
X-32.497 Y-212.867
X-32.326 Y-211.972
X-32.174 Y-211.073
X-32.028 Y-210.173
X-31.858 Y-209.277
X-31.687 Y-208.622
X-31.518 Y-208.135
X-31.464 Y-208.014
X-31.324 Y-207.766
X-31.14 Y-207.549
X-30.918 Y-207.372
X-30.666 Y-207.24
X-30.393 Y-207.159
X-30.11 Y-207.132
X-29.452 Y-207.131
G2 X-29.211 Y-207.188 I-0.022 J-0.635
G1 X-29.12 Y-207.229 Z-6.992
X-29.032 Y-207.269 Z-6.969
X-28.948 Y-207.307 Z-6.931
X-28.871 Y-207.342 Z-6.879
X-28.802 Y-207.374 Z-6.814
X-28.743 Y-207.401 Z-6.738
X-28.696 Y-207.422 Z-6.653
X-28.661 Y-207.438 Z-6.561
X-28.64 Y-207.448 Z-6.464
X-28.633 Y-207.451 Z-6.365
G0 Z5
X-76.678 Y-240.135
Z-5.73
G1 Z-6.365 F150
X-76.685 Y-240.138 Z-6.464
X-76.707 Y-240.146 Z-6.561
X-76.743 Y-240.159 Z-6.653
X-76.792 Y-240.177 Z-6.738
X-76.852 Y-240.199 Z-6.814
X-76.924 Y-240.225 Z-6.879
X-77.003 Y-240.254 Z-6.931
X-77.09 Y-240.285 Z-6.969
X-77.181 Y-240.319 Z-6.992
X-77.274 Y-240.353 Z-7
G2 X-77.51 Y-240.272 I-0.068 J0.186
G1 X-78.004 Y-239.426 F200
X-78.132 Y-239.209
X-78.339 Y-238.865
X-78.424 Y-238.71
X-78.496 Y-238.578
X-78.558 Y-238.441
X-78.61 Y-238.301
X-78.654 Y-238.157
X-78.689 Y-238.011
X-78.716 Y-237.864
X-78.736 Y-237.715
X-78.749 Y-237.566
X-78.755 Y-237.416
X-78.754 Y-237.266
X-78.747 Y-237.116
X-78.735 Y-236.967
X-78.717 Y-236.818
X-78.693 Y-236.67
X-78.664 Y-236.522
X-78.631 Y-236.376
X-78.593 Y-236.231
X-78.55 Y-236.087
X-78.503 Y-235.945
X-78.452 Y-235.804
X-78.397 Y-235.664
X-78.339 Y-235.526
X-78.276 Y-235.39
X-78.21 Y-235.255
X-78.141 Y-235.122
X-78.069 Y-234.99
X-77.994 Y-234.861
X-77.916 Y-234.732
X-77.835 Y-234.606
X-77.751 Y-234.482
X-77.664 Y-234.359
X-77.575 Y-234.239
X-77.484 Y-234.119
X-77.391 Y-234.002
X-77.295 Y-233.887
X-77.197 Y-233.773
X-77.097 Y-233.661
X-76.995 Y-233.551
X-76.891 Y-233.443
